!!!!SEGMENT: pl-sa--58-a-i-58--001-002_lechleitner-ferdinand-simon--vesperae-in-f-dixit-dominus.krn
!!!cenid: 17xx:412
!!!COM: Lechleitner, Ferdinand Simon
!!!COM-rismID: pe30001903
!!!CDT: ~1700-~1800
!!!CNT:
!!!OPR: Vesperae in F
!!!OTL: Dixit dominus
!!!OMV: 002
!!!PDT: 1726
!!!AGN: Sacred; Vespers
!!!SMS-siglum: PL-SA
!!!SMS-shelfmark: 58/A I 58
!!!SMS-shelfwork: 001-002 M
!!!SMS-variant: Violino 1mo: PL-SA 58/A I 58:51-53; Organo: PL-SA 58/A I 58:85-86
!!!SMS-altvar: Violino 1mo in Es: PL-SA 58/A I 58:94-96; Organo in Es: PL-SA 58/A I 58:104-105
!!!NIFC-rismSourceID: 1001068282
!!!NIFC-islandoraID:
!!!URL-pdf-islandora:
!!!URL-scan: https://bc.bdsandomierz.pl/dlibra/publication/1347/edition/1315/content @EN{Scan in the Sandomierz Diocese Digital Library} @PL{Skany w portalu Cyfrowa Biblioteka Diecezjalna w Sandomierzu}
!!!ONB-nifc: UWAGA: części Vespere: Domine ad adiuvandum, Dixit dominus, Confitebor, Beatus vir, Laudate pueri, Laudate Dominum, Magnificat
!!!AIN: 1 alto 1 bass 2 corno 1 organ 1 soprn 1 tenor 2 violn
!!!key:
**kern	**fba	**kern	**dynam	**kern	**dynam	**kern	**text	**kern	**text	**kern	**text	**kern	**text	**kern	**dynam	**kern	**dynam
*part9	*	*part8	*part8	*part7	*part7	*part6	*part6	*part5	*part5	*part4	*part4	*part3	*part3	*part2	*part2	*part1	*part1
*staff9	*	*staff8	*	*staff7	*	*staff6	*staff6	*staff5	*staff5	*staff4	*staff4	*staff3	*staff3	*staff2	*	*staff1	*
*ICclav	*	*ICstr	*	*ICstr	*	*ICvox	*	*ICvox	*	*ICvox	*	*ICvox	*	*ICww	*	*ICww	*
*Iorgan	*	*Ivioln	*	*Ivioln	*	*Ibass	*	*Itenor	*	*Ialto	*	*Isoprn	*	*Icorno	*	*Icorno	*
*I"Organo	*	*I"Violino 2do	*	*I"Violino 1mo.	*	*I"Baſsus	*	*I"Tenor	*	*I"Altus	*	*I"Canto	*	*I"Lituo 2do	*	*I"Lituo 1mo	*
*I'org	*	*I'vl II	*	*I'vl I	*	*I'B	*	*I'T	*	*I'A	*	*I'C	*	*I'lituus II	*	*I'lituus I	*
*clefF4	*	*clefG2	*	*clefG2	*	*clefF4	*	*clefC4	*	*clefC3	*	*clefC1	*	*clefG2	*	*clefG2	*
*	*	*	*	*	*	*	*	*	*	*	*	*	*	*ITrd4c7	*	*ITrd4c7	*
*k[b-]	*	*k[b-]	*	*k[b-]	*	*k[b-]	*	*k[b-]	*	*k[b-]	*	*k[b-]	*	*k[b-]	*	*k[b-]	*
*F:	*	*F:	*	*F:	*	*F:	*	*F:	*	*F:	*	*F:	*	*F:	*	*F:	*
*M6/8	*	*M6/8	*	*M6/8	*	*M6/8	*	*M6/8	*	*M6/8	*	*M6/8	*	*M6/8	*	*M6/8	*
*	*	*	*below	*	*below	*	*	*	*	*	*	*	*	*	*	*	*
=1	=1	=1	=1	=1	=1	=1	=1	=1	=1	=1	=1	=1	=1	=1	=1	=1	=1
!LO:SIC:o:s:=:v:4\right	!	!LO:TX:a:t=Tutti	!	!LO:TX:a:t=tutti.	!	!LO:TX:a:t=Tutti.	!	!	!	!LO:TX:a:t=Tut	!	!LO:TX:rj:a:t=Tutti	!	!	!	!	!
!LO:TX:rj:a:B:t=Andante	!	!LO:TX:a:B:t=Addante	!	!LO:TX:a:B:t=andante&colon;	!	!LO:TX:a:B:t=Andante&colon;	!	!	!	!LO:TX:a:B:t=Andant	!	!LO:TX:a:B:t=Andante	!	!	!	!LO:TX:a:B:t=Andante	!
!LO:TX:b:t=Dominus	!	!LO:TX:rj:b:t=Dixit Dominus.	!	!LO:TX:rj:b:t=Dixit Dominus.	!	!	!	!	!	!	!	!	!	!	!	!LO:TX:b:t=Dixit	!
4F\	.	4ff\	.	4aa\	.	4F\	Di-	4c\	Di-	4c/	Di-	4a\	Di-	2.r	.	2.r	.
8G\	.	8ee\	.	8gg\	.	8G\	-xit	8B-\	-xit	8g\	-xit	8b-,<\	-xit,	.	.	.	.
!LO:SIC:o:s:=:v:8\right	!	!	!	!	!	!	!	!	!	!	!	!	!	!	!	!	!
8.A\L	6	8.cc\L	.	8.ff\L	.	8.A\	Do-	8.A/	Do-	8.f\	Do-	8.cc\	Do-	.	.	.	.
!LO:SIC:o:s:=:v:16\right	!	!	!	!	!	!	!	!	!	!	!	!	!	!	!	!	!
16G\K	6	16ee\K	.	16gg\K	.	16G\	-mi-	16B-/	-mi-	16g\	-mi-	16b-\	-mi-	.	.	.	.
8F\J	.	8ff\J	.	8aa\J	.	8F\	-nus	8c\	-n(us)	8a\	-nus	8a,<\	-nus,	.	.	.	.
=2	=2	=2	=2	=2	=2	=2	=2	=2	=2	=2	=2	=2	=2	=2	=2	=2	=2
!	!	!	!	!	!	!	!	!	!	!	!	!	!	!LO:N:vis=2	!	!LO:N:vis=2	!
8.c\L	.	8.ee\L	.	(16gg\LL	.	8.c\	Do-	8.c\	Do-	8.e\	Do-	8.g/	Do-	4.r	.	4.r	.
.	.	.	.	16ee\)	.	.	.	.	.	.	.	.	.	.	.	.	.
!	!	!	!	!LO:SIC:o:s:=:v:niejednoznaczny zapis artykulacji	!	!	!	!	!	!	!	!	!	!	!	!	!
.	.	.	.	16cc`\	.	.	.	.	.	.	.	.	.	.	.	.	.
16B-\K	.	16dd\K	.	16gg`\	.	16B-\	-mi-	16d\	-mi-	16d\	-mi-	16g/	-mi-	.	.	.	.
8c\J	.	8ee\J	.	16ee`\	.	8c\	-no	8c\	-no	8e\	-no	8g,</	-no,	.	.	.	.
.	.	.	.	16gg`\JJ	.	.	.	.	.	.	.	.	.	.	.	.	.
!LO:TX:b:t=Solo	!	!	!	!	!	!	!	!LO:N:vis=16	!	!	!	!	!	!	!	!	!
4F\	.	8ff\L	.	8aa\L	.	8F\	me-	8c\	me-	8f\	me-	8a\	me-	8r	.	8r	.
!	!	!	!	!LO:TX:a:t=Solo	!	!	!	!	!	!	!	!	!	!	!	!LO:TX:a:t=Solo	!
.	.	8cc\	.	8aa\	.	8F\	-o	8c\	-o	8c/	-o	8f/	-o,	8a\L	.	8cc\L	.
!	!	!LO:TX:a:t=Solo	!	!	!	!	!	!	!	!	!	!	!	!	!	!	!
8G\	6	8b-\J	.	8gg\J	.	8r	.	8r	.	8r	.	8r	.	8g\J	.	8b-\J	.
!	!	!	!	!	!	!LO:LB:g=original	!	!	!	!	!	!	!	!	!	!	!
=3	=3	=3	=3	=3	=3	=3	=3	=3-	=3	=3	=3	=3	=3	=3	=3	=3	=3
!	!	!	!	!	!	!LO:TX:a:t=1	!	!	!	!	!	!LO:TX:a:t=1	!	!	!	!	!
4A\	6	8.a\L	.	8.ff\L	.	2.r	.	2.r	.	2.r	.	2.r	.	8.f\L	.	8.a\L	.
.	.	16b-\K	.	16gg\K	.	.	.	.	.	.	.	.	.	16g\K	.	16b-\K	.
8F\	.	8cc\J	.	8aa\J	.	.	.	.	.	.	.	.	.	8a\J	.	8cc\J	.
!	!	!	!	!	!	!	!	!	!	!	!	!	!	!LO:TX:a:t=P:problem=mixed beam	!	!	!
4c\	.	8.ee\L	.	8gg\L	.	.	.	.	.	.	.	.	.	8g\L	.	8cc\L	.
.	.	.	.	(16gg\L	.	.	.	.	.	.	.	.	.	16c/L	.	16g\L	.
.	.	16dd\K	.	16bb-\)	.	.	.	.	.	.	.	.	.	16A/J	.	16f\J	.
8C/	.	8ee\J	.	(16bb-\	.	.	.	.	.	.	.	.	.	8c/J	.	8g\J	.
.	.	.	.	16gg\JJ)	.	.	.	.	.	.	.	.	.	.	.	.	.
=4	=4	=4	=4	=4	=4	=4	=4	=4-	=4	=4-	=4	=4	=4	=4	=4	=4	=4
!	!	!LO:TX:a:t=P:problem=mixed beam	!	!	!	!	!	!	!	!	!	!	!	!	!	!	!
!LO:TX:b:t=Tutti	!	!LO:TX:a:t=Tutti	!	!LO:TX:a:t=tutti.	!	!	!	!	!	!	!	!	!	!LO:TX:a:t=Tut.	!	!LO:TX:a:t=Tutti	!
4F\	.	8ff\L	.	8aa\L	.	8r	.	8r	.	8r	.	8r	.	8f\L	.	8a\L	.
.	.	8a/	.	8ff\	.	8F\	Di-	8A/	Di-	8a\	Di-	8cc\	Di-	8c\	.	8f\	.
8G\	6	8gg\J	.	8ee\J	.	8G\	-xit	8B-\	-xit	8g\	-xit	8b-,<\	-xit,	8g\J	.	8b-\J	.
8.A\L	6	8.cc\L	.	8.ff\L	.	8.A\	Do-	8.c\	Do-	8.f\	Do-	8.a\	Do-	8.f\L	.	8.a\L	.
16G\K	.	16ee\K	.	16gg\K	.	16G\	-mi-	16B-\	-mi-	16g\	-mi-	16b-\	-mi-	16g\K	.	16b-\K	.
8F\J	.	8ff\J	.	8aa\J	.	8F\	-nus	8A/	-nus	8a\	-n(us)	8cc,<\	-nus,	8a\J	.	8cc\J	.
=5	=5	=5	=5	=5	=5	=5	=5	=5	=5	=5	=5	=5	=5	=5	=5	=5	=5
!	!	!	!	!	!	!	!	!	!	!	!	!	!	!LO:TX:a:t=P:problem=mixed beam	!	!	!
8.c\L	.	16ee\LL	.	16gg\LL	.	8.c\	Do-	8.e\	Do-	8.g\	Do-	8.cc\	Do-	8g\L	.	8cc\L	.
.	.	16ee\	.	16gg\	.	.	.	.	.	.	.	.	.	.	.	.	.
.	.	16b-\	.	16ee\	.	.	.	.	.	.	.	.	.	16c/L	.	16g\L	.
16B-\K	.	16ee\	.	16gg\	.	16B-\	-mi-	16d\	-mi-	16g\	-mi-	16dd\	-mi-	16A/J	.	16f\J	.
8c\J	.	16g\	.	16cc\	.	8c\	-no	8c\	-no	8g\	-no	8ee\	-no,	8c/J	.	8g\J	.
.	.	16ee\JJ	.	16gg\JJ	.	.	.	.	.	.	.	.	.	.	.	.	.
!	!	!LO:TX:a:t=P:problem=mixed beam	!	!	!	!	!	!	!	!	!	!	!	!LO:N:vis=8	!	!	!
4.F\	.	16ff\LL	.	16aa\LL	.	8F\	me-	8c\	me-	8a\	me-	8ff\	me-	16f\LL	.	16a\LL	.
!	!	!	!	!	!	!	!	!	!	!	!	!	!	!	!	!LO:SIC:o:s:=:v:niejednoznaczny zapis łuków w t. 5	!
.	.	16a/	.	16cc\	.	.	.	.	.	.	.	.	.	16a\	.	16cc\	.
!	!	!	!	!LO:SIC:o:s:=:v:niejednoznaczny zapis łuków w t. 5	!	!	!	!	!	!	!	!	!	!LO:SIC:o:s:=:v:niejednoznaczny zapis łuków w t. 5	!	!	!
.	.	(16a/	.	(16cc\	.	8F\	-o	8c\	-o	8f\	-o	8ff\	-o,	(16a\	.	(16cc\	.
.	.	16g/)	.	16b-\)	.	.	.	.	.	.	.	.	.	16g\)	.	16b-\)	.
.	.	(16g/	.	(16b-\	.	8r	.	8r	.	8r	.	8r	.	(16g\	.	(16b-\	.
.	.	16f/JJ)	.	16a\JJ)	.	.	.	.	.	.	.	.	.	16f\JJ)	.	16a\JJ)	.
!	!	!LO:LB:g=original	!	!LO:LB:g=original	!	!	!	!LO:LB:g=original	!	!	!	!LO:LB:g=original	!	!	!	!	!
=6	=6	=6	=6	=6	=6	=6	=6	=6	=6	=6	=6	=6	=6	=6	=6	=6	=6
!	!	!	!	!	!	!LO:N:vis=2	!	!	!	!	!	!	!	!LO:TX:a:t=P:problem=mixed beam	!	!LO:TX:a:t=P:problem=mixed beam	!
8C/	.	8e/L	.	8g/L	.	4.r	.	8r	.	8r	.	8r	.	8g\L	.	8g\L	.
8r	.	8G/J	.	8c/J	.	.	.	8c\	se-	8g\	se-	8ee\	se-	8c/J	.	8c/J	.
!	!	!	!	!	!	!	!	!	!	!LO:LB:g=original	!	!	!	!	!	!	!
8r	.	8r	.	8r	.	.	.	8c\	-de	8g\	-de	8ee\	-de,	8r	.	8r	.
!	!	!LO:N:vis=2	!	!LO:N:vis=2	!	!	!	!	!	!	!	!	!	!LO:N:vis=2	!	!LO:N:vis=2	!
*	*	*	*	*	*	*	*	*	*ij	*	*	*	*	*	*	*	*
8FF/	.	4.r	.	4.r	.	8r	.	4c\	se-	(16a\LL	se-	(16ff\LL	se-	4.r	.	4.r	.
.	.	.	.	.	.	.	.	.	.	16g\JJ)	.	16ee\JJ)	.	.	.	.	.
8r	.	.	.	.	.	8c\	se-	.	.	(16a\LL	-de	(16ff\LL	-de	.	.	.	.
.	.	.	.	.	.	.	.	.	.	16g\JJ)	.	16ee\JJ)	.	.	.	.	.
!	!	!	!	!	!	!	!	!LO:SIC:o:s:=:v:znak oddechu na 1 linii&colon;global	!	!	!	!	!	!	!	!	!
8r	.	.	.	.	.	8c\	-de	8c,<\	-de	8a\	a	8ff\	a	.	.	.	.
*	*	*	*	*	*	*	*	*	*Xij	*	*	*	*	*	*	*	*
=7	=7	=7	=7	=7	=7	=7	=7	=7	=7	=7	=7	=7	=7	=7	=7	=7	=7
!	!	!	!	!	!	!	!	!	!	!	!	!	!	!LO:N:vis=2	!	!LO:N:vis=2	!
8r	.	16r	.	16r	.	8c\	se-	8r	.	(8g\L	dex-	8ee\	dex-	4.r	.	4.r	.
.	.	16ee\LL	.	16gg\LL	.	.	.	.	.	.	.	.	.	.	.	.	.
!LO:TX:a:t=P:problem=mixed beam	!	!	!	!	!	!	!	!	!	!	!	!	!	!	!	!	!
8c\L	.	16cc\	.	16ee\	.	8C/	-de	8e\	se-	8e\J)	.	8cc\	-tris,	.	.	.	.
.	.	16g\	.	16cc\	.	.	.	.	.	.	.	.	.	.	.	.	.
8c\	.	16cc\	.	16ee\	.	8r	.	8e\	-de	8g\	-tris	8r	.	.	.	.	.
.	.	16ee\JJ	.	16gg\JJ	.	.	.	.	.	.	.	.	.	.	.	.	.
8c\	6 4	16a\LL	.	16cc\LL	.	8r	.	(16f\LL	se-	(16a\LL	se-	8r	.	8r	.	8r	.
.	.	16ff\	.	16aa\	.	.	.	16e\JJ)	.	16g\JJ)	.	.	.	.	.	.	.
8C/J	5 3	16cc\	.	16ff\	.	8c\	se-	(16f\LL	-de	(16a\LL	-de	8cc\	se-	8c/L	.	8c/L	.
.	.	16a\	.	16cc\	.	.	.	16e\JJ)	.	16g\JJ)	.	.	.	.	.	.	.
8r	.	16cc\	.	16ff\	.	8c\	-de	8f\	a	8a\	a	8cc\	-de	8c/J	.	8c/J	.
.	.	16ff\JJ	.	16aa\JJ	.	.	.	.	.	.	.	.	.	.	.	.	.
!	!	!	!	!	!	!	!	!	!	!	!	!	!	!LO:LB:g=original	!	!	!
=8	=8	=8	=8	=8	=8	=8	=8	=8	=8	=8	=8	=8	=8	=8	=8	=8	=8
!	!	!	!	!	!	!	!	!	!	!	!	!	!	!LO:TX:a:t=P:problem=mixed beam	!	!LO:TX:a:t=P:problem=mixed beam	!
*	*	*	*	*	*	*	*	*ij	*	*	*	*	*	*	*	*	*
8r	.	16cc\LL	.	(16ee\LL	.	8c\	se-	8e\	dex-	8g\	dex-	8cc\	se-	8c/L	.	8c/L	.
.	.	16ee\	.	16gg\)	.	.	.	.	.	.	.	.	.	.	.	.	.
!	!	!	!	!	!	!	!	!	!	!LO:SIC:o:s:=:v:znak oddechu na 1 linii&colon;global	!	!	!	!	!	!	!
8c\L	.	16gg\	.	(16ee\	.	8C/	-de	8c\	-tris	8e,<\	-tris	8cc\	-de,	8c/	.	8c/	.
*	*	*	*	*	*	*	*Xij	*	*	*	*	*	*	*	*	*	*
.	.	16ee\	.	16cc\)	.	.	.	.	.	.	.	.	.	.	.	.	.
!	!	!	!	!LO:SIC:o:s:=:v:niejednoznaczny zapis artykulacji w tt. 8-9	!	!	!	!	!	!	!	!	!	!	!	!	!
8F\J	.	16cc\	.	16ee`\	.	8F\	a	8A/	a	8g\	a	8cc\	a	8a\J	.	8cc\J	.
.	.	16ee\JJ	.	16gg`\JJ	.	.	.	.	.	.	.	.	.	.	.	.	.
!	!	!	!	!	!	!LO:LB:g=original	!	!	!	!	!	!	!	!	!	!LO:LB:g=original	!
!	!	!	!	!	!	!	!	!	!	!	!	!	!	!LO:TX:a:t=P:problem=mixed beam	!	!	!
8B-\L	.	16dd\LL	.	(16ff\LL	.	8B-\	dex-	8.B-\	dex-	8.f\	dex-	8.dd\	dex-	8f\L	.	16b-\LL	.
.	.	16gg\	.	16bb-\)	.	.	.	.	.	.	.	.	.	.	.	16cc\	.
8G\	7	16gg\	.	(16bb-\	.	8G\	-tris	.	.	.	.	.	.	8g\	.	16b-\	.
.	.	16ff\	.	16aa\)	.	.	.	16d\	-tris	16b-\	-tris	16dd\	-tris	.	.	16a\J	.
8c\J	.	16ff\	.	(16aa\	.	8c\	me-	8c\	me-	8g\	tu-	8ee\	me-	8c/J	.	8g\J	.
.	.	16ee\JJ	.	16gg\JJ)	.	.	.	.	.	.	.	.	.	.	.	.	.
=9	=9	=9	=9	=9	=9	=9	=9	=9	=9	=9	=9	=9	=9	=9	=9	=9	=9
!	!	!	!	!	!	!LO:SIC:o:s:=:v:znak oddechu na 1 linii&colon;global	!	!	!	!	!	!	!	!	!	!	!
8F\L	.	16ff\LL	.	(16aa\LL	.	8F,<\	-is	8c,<\	-is	8a,<\	-is	8ff\	-is,	8A/L	.	8f\L	.
.	.	16aa\	.	16ff\)	.	.	.	.	.	.	.	.	.	.	.	.	.
8c\	.	16gg\	.	16ee`\	.	8c\	se-	8c\	se-	8g\	se-	8ee\	se-	8c/	.	8g\	.
.	.	16ee\	.	16gg`\	.	.	.	.	.	.	.	.	.	.	.	.	.
8B-\J	4 2	16cc\	.	16cc`\	.	8B-\	-de	8c\	-de	8g\	-de	8ee\	-de	8c/J	.	8g\J	.
.	.	16ee\JJ	.	16gg`\JJ	.	.	.	.	.	.	.	.	.	.	.	.	.
!LO:LB:g=original	!	!	!	!	!	!	!	!	!	!	!	!	!	!	!	!	!
!	!	!	!	!LO:TX:a:t=P:problem=mixed beam	!	!	!	!	!	!	!	!	!	!	!	!	!
*	*	*	*	*	*	*	*	*ij	*	*	*	*	*	*	*	*	*
8A\L	6	16ff\LL	.	(16aa\LL	.	8A\	se-	8c\	se-	8f\	se-	8ff\	se-	8f\L	.	8a\L	.
.	.	16cc\	.	16ff\)	.	.	.	.	.	.	.	.	.	.	.	.	.
8G\	6	16gg\	.	(16ee\	.	8G\	-de	8B-\	-de	8g\	-de	8ee\	-de,	8g\	.	8b-\	.
*	*	*	*	*	*	*	*Xij	*	*	*	*	*	*	*	*	*	*
.	.	16ee\	.	16gg\)	.	.	.	.	.	.	.	.	.	.	.	.	.
8F\J	.	16cc\	.	16aa`\	.	8F\	a	8c\	a	8a\	a	8ff\	a	8a\J	.	8cc\J	.
.	.	16aa\JJ	.	16a`/JJ	.	.	.	.	.	.	.	.	.	.	.	.	.
=10	=10	=10	=10	=10	=10	=10	=10	=10	=10	=10	=10	=10	=10	=10	=10	=10	=10
8E\L	.	8ee\L	.	8gg\L	.	(8E\L	dex-	(4e\	dex-	(4g\	dex-	4cc\	dex	8c/L	.	8g\L	.
8C\	.	16ee\L	.	16aa\L	.	8D\	.	.	.	.	.	.	.	16c/L	.	16a\L	.
.	.	16dd\J	.	16gg\J	.	.	.	.	.	.	.	.	.	16c/	.	16g\J	.
!	!	!	!	!	!	!	!	!	!	!	!	!LO:SIC:o:s:=:v:zapis nieczytelny w tt. 10-11	!	!	!	!	!
8F\J	.	8cc\J	.	8aa\J	.	8F\J)	.	8f\)	.	8f\)	.	8ryy	.	16c/	.	8f\J	.
.	.	.	.	.	.	.	.	.	.	.	.	.	.	16c/JJ	.	.	.
!	!	!	!	!	!	!	!	!LO:LB:g=original	!	!	!	!	!	!	!	!	!
8BB-/L	6 5	8dd\L	.	16gg\LL	.	8BB-/	-tris	8d\	-tris	8g\	-tris	8ryy	.	8c/L	.	8g\L	.
.	.	.	.	16aa\J	.	.	.	.	.	.	.	.	.	.	.	.	.
8C/	.	8g\	.	8ff\	.	4C/	me-	4c\	me-	(8f\L	me-	4ryy	.	16c/L	.	8.g\	.
.	4	.	.	.	.	.	.	.	.	.	.	.	.	16A/	.	.	.
8CC/J	3	8cc\J	.	8ee\J	.	.	.	.	.	8e\J)	.	.	.	16F/	.	.	.
.	.	.	.	.	.	.	.	.	.	.	.	.	.	16c/JJ	.	16f\Jk	.
!	!	!LO:LB:g=original	!	!LO:LB:g=original	!	!	!	!	!	!LO:LB:g=original	!	!LO:LB:g=original	!	!	!	!	!
=11	=11	=11	=11	=11	=11	=11	=11	=11	=11	=11	=11	=11	=11	=11	=11	=11	=11
*M2/2	*	*M2/2	*	*M2/2	*	*M2/2	*	*M2/2	*	*M2/2	*	*M2/2	*	*M2/2	*	*M2/2	*
*met(c|)	*	*met(c|)	*	*met(c|)	*	*met(c|)	*	*met(c|)	*	*met(c|)	*	*met(c|)	*	*met(c|)	*	*met(c|)	*
!LO:SIC:o:s:=:v:oznaczenie metryczne C z kropką	!	!	!	!	!	!	!	!	!	!	!	!LO:SIC:o:s:=:v:oznaczenie metryczne C z kropką	!	!	!	!	!
!LO:TX:b:t=Solo	!	!	!	!LO:TX:a:t=Solo	!	!	!	!	!	!	!	!LO:TX:a:t=Solo	!	!	!	!	!
!LO:TX:b:B:t=Allegro	!	!LO:TX:a:t=Solo	!	!LO:TX:a:B:t=Allegro	!	!LO:TX:a:B:t=Allegro	!	!	!	!LO:TX:a:B:t=alleg	!	!LO:TX:a:B:t=Allegro	!	!LO:TX:a:B:t=Allegro	!	!LO:TX:a:B:t=Allegro	!
4FF/	.	4a/	.	4ff\	.	4F\	-is	4c\	-is	4f\	-is	4ryy	.	4A/	.	4f\	.
!LO:TX:a:t=P:problem=mixed beam	!	!	!	!	!	!	!	!	!	!	!	!	!	!	!	!	!
8F\L	.	4r	.	4r	.	4r	.	4r	.	4r	.	8cc\	do-	4r	.	4r	.
8BB-/J	.	.	.	.	.	.	.	.	.	.	.	16dd\LL	-nec	.	.	.	.
.	.	.	.	.	.	.	.	.	.	.	.	16b-\JJ	.	.	.	.	.
!	!	!	!	!	!	!LO:SIC:o:s:=:v:brak kreski taktowej	!	!LO:SIC:o:s:=:v:brak kreski taktowej	!	!	!	!	!	!	!	!	!
4F\	.	4r	.	4r	.	2r	.	2r	.	2r	.	(16cc\LL	po-	4r	.	4r	.
.	.	.	.	.	.	.	.	.	.	.	.	16a\JJ)	.	.	.	.	.
.	.	.	.	.	.	.	.	.	.	.	.	8f/	-nam	.	.	.	.
!LO:TX:a:t=P:problem=mixed beam	!	!	!	!	!	!	!	!	!	!	!	!	!	!LO:TX:a:t=Solo	!	!LO:TX:a:t=Solo	!
8F\L	.	8cc\L	.	8aa\L	.	.	.	.	.	.	.	4r	.	8a\L	.	8cc\L	.
8BB-/J	.	16dd\L	.	16bb-\L	.	.	.	.	.	.	.	.	.	16b-\L	.	16dd\L	.
!	!	!	!	!	!	!	!	!	!	!	!	!	!	!LO:SIC:o:s:=:v:s=16dd	!	!	!
.	.	16b-\JJ	.	16gg\JJ	.	.	.	.	.	.	.	.	.	16a\JJ	.	16b-\JJ	.
=12	=12	=12	=12	=12	=12	=12-	=12	=12-	=12	=12-	=12	=12	=12	=12	=12	=12	=12
4F\	.	8cc\L	.	8aa\L	.	00r	.	00r	.	00r	.	0r	.	8a\L	.	8cc\L	.
.	.	8a\J	.	8ff\	.	.	.	.	.	.	.	.	.	8f\	.	8a\J	.
8A\L	.	8f/L	.	8cc\	.	.	.	.	.	.	.	.	.	8c\	.	8f\L	.
8F\J	.	8a/J	.	8ff\J	.	.	.	.	.	.	.	.	.	8f\J	.	8a\J	.
!	!	!	!	!	!	!	!	!	!	!	!	!	!	!LO:TX:a:t=P:problem=mixed beam	!	!	!
4C/	.	4g/	.	8ee\L	.	.	.	.	.	.	.	.	.	8g\L	.	4g\	.
.	.	.	.	8cc\J	.	.	.	.	.	.	.	.	.	8c/J	.	.	.
8c\L	.	8ee\L	.	8gg\L	.	.	.	.	.	.	.	.	.	8c/L	.	8g\L	.
8F\J	.	16ff\L	.	16aa\L	.	.	.	.	.	.	.	.	.	16f/L	.	16a\L	.
.	.	16dd\JJ	.	16ff\JJ	.	.	.	.	.	.	.	.	.	16A/JJ	.	16f\JJ	.
=13	=13	=13	=13	=13	=13	=13	=13	=13	=13	=13	=13	=13	=13	=13	=13	=13	=13
4c\	.	8ee\L	.	16gg\LL	.	.	.	.	.	.	.	.	.	8c/L	.	8g\L	.
.	.	.	.	16ee\J	.	.	.	.	.	.	.	.	.	.	.	.	.
.	.	8cc\J	.	8cc\J	.	.	.	.	.	.	.	.	.	8c/J	.	8c\J	.
8c\L	.	8ee\L	.	8gg\L	.	.	.	.	.	.	.	.	.	8c/L	.	8g\L	.
16B-\L	.	8ff\J	.	8aa\J	.	.	.	.	.	.	.	.	.	8f/J	.	8a\J	.
16A\JJ	.	.	.	.	.	.	.	.	.	.	.	.	.	.	.	.	.
!LO:TX:a:t=P:problem=mixed beam	!	!	!	!	!	!	!	!	!	!	!	!	!	!	!	!	!
8G\L	.	8gg\L	.	8bb-\L	.	.	.	.	.	.	.	.	.	8g\L	.	8b-\L	.
8B-\	6	8gg\J	.	8bb-\J	.	.	.	.	.	.	.	.	.	8g\J	.	8b-\J	.
8c\	7	8gg\L	.	8bb-\L	.	.	.	.	.	.	.	.	.	8g\L	.	8b-\L	.
8C/J	.	16ff\L	.	16aa\L	.	.	.	.	.	.	.	.	.	16f\L	.	16a\L	.
.	.	16ee\JJ	.	16gg\JJ	.	.	.	.	.	.	.	.	.	16c\JJ	.	16g\JJ	.
!	!	!	!	!	!	!	!	!	!	!	!	!	!	!LO:LB:g=original	!	!LO:LB:g=original	!
=14	=14	=14	=14	=14	=14	=14	=14	=14	=14	=14	=14	=14	=14	=14	=14	=14	=14
!LO:TX:a:t=P:problem=mixed beam	!	!	!	!	!	!	!	!	!	!	!	!	!	!	!	!	!
8F\L	.	8ff\L	.	8aa\L	.	.	.	.	.	.	.	2r	.	8f\L	.	8a\L	.
8B-\	6	16ee\L	.	16gg\L	.	.	.	.	.	.	.	.	.	16g\L	.	8g\J	.
.	5	16dd\JJ	.	16ff\JJ	.	.	.	.	.	.	.	.	.	16c\JJ	.	.	.
8c\	4	8cc\L	.	8.eet\L	.	.	.	.	.	.	.	.	.	8c/L	.	8.g\L	.
8C\J	3	8b-\J	.	.	.	.	.	.	.	.	.	.	.	16c/L	.	.	.
.	.	.	.	16ff\Jk	.	.	.	.	.	.	.	.	.	16c/JJ	.	16f\Jk	.
8F\L	.	4a/	.	4ff\	.	.	.	.	.	.	.	4r	.	4A/	.	4f\	.
8G\	.	.	.	.	.	.	.	.	.	.	.	.	.	.	.	.	.
8A\	.	4r	.	4r	.	.	.	.	.	.	.	8cc\	do-	4r	.	4r	.
8B-\J	.	.	.	.	.	.	.	.	.	.	.	(16dd\LL	-nec,	.	.	.	.
.	.	.	.	.	.	.	.	.	.	.	.	16b-\JJ)	.	.	.	.	.
=15	=15	=15	=15	=15	=15	=15	=15	=15	=15	=15	=15	=15	=15	=15	=15	=15	=15
8F\L	.	1r	.	1r	.	.	.	.	.	.	.	(16cc\LL	po-	1r	.	1r	.
.	.	.	.	.	.	.	.	.	.	.	.	16a\JJ)	.	.	.	.	.
8G\	.	.	.	.	.	.	.	.	.	.	.	8f,</	-nam,	.	.	.	.
8A\	.	.	.	.	.	.	.	.	.	.	.	8cc\	i-	.	.	.	.
8F\J	.	.	.	.	.	.	.	.	.	.	.	8ff\	-ni-	.	.	.	.
!LO:TX:a:t=P:problem=mixed beam	!	!	!	!	!	!	!	!	!	!	!	!	!	!	!	!	!
8C/L	.	.	.	.	.	.	.	.	.	.	.	8ee\	-mi-	.	.	.	.
8c\	.	.	.	.	.	.	.	.	.	.	.	8cc,<\	-cos,	.	.	.	.
8Bn\	6	.	.	.	.	.	.	.	.	.	.	8.gg\	i-	.	.	.	.
8G\J	n	.	.	.	.	.	.	.	.	.	.	.	.	.	.	.	.
.	.	.	.	.	.	.	.	.	.	.	.	16ff\	-ni-	.	.	.	.
=16	=16	=16-	=16	=16-	=16	=16	=16	=16	=16	=16	=16	=16	=16	=16	=16	=16	=16
!LO:TX:a:t=P:problem=mixed beam	!	!	!	!LO:SIC:o:s:=:v:pauza półnutowa nad 2 linią	!	!	!	!	!	!	!	!LO:SIC:o:s:=:v:zapis nieczytelny w t. 16	!	!	!	!	!
8c\L	.	2r	.	2r	.	0r	.	00r	.	00r	.	8ee\	-mi-	2r	.	2r	.
8F\	6	.	.	.	.	.	.	.	.	.	.	(16dd\LL	-cos	.	.	.	.
.	.	.	.	.	.	.	.	.	.	.	.	16cc\JJ)	.	.	.	.	.
8G\	5	.	.	.	.	.	.	.	.	.	.	(4bn\	tu-	.	.	.	.
8GG/J	n	.	.	.	.	.	.	.	.	.	.	.	.	.	.	.	.
!	!	!	!	!LO:LB:g=original	!	!	!	!	!	!	!	!	!	!	!	!	!
4C/	.	4r	.	4r	.	.	.	.	.	.	.	8cc\)	-os	4r	.	4r	.
!	!	!	!	!	!	!	!	!	!	!	!	!LO:LB:g=original	!	!	!	!	!
.	.	.	.	.	.	.	.	.	.	.	.	(16gg\LL	sca-	.	.	.	.
.	.	.	.	.	.	.	.	.	.	.	.	16ff\JJ)	.	.	.	.	.
8r	.	8r	.	8r	.	.	.	.	.	.	.	16ee\LL	-bel-	8r	.	8r	.
.	.	.	.	.	.	.	.	.	.	.	.	16ff\	.	.	.	.	.
*	*	*custos:g	*	*	*	*	*	*	*	*	*	*	*	*	*	*	*
8E\	6 -5	8g/	p	8b-'/	p	.	.	.	.	.	.	16gg\	.	8C/	.	8c/	p
.	.	.	.	.	.	.	.	.	.	.	.	16b-X\JJ	.	.	.	.	.
!LO:LB:g=original	!	!LO:LB:g=original	!	!	!	!	!	!	!	!	!	!	!	!	!	!	!
=17	=17	=17	=17	=17	=17	=17	=17	=17	=17	=17	=17	=17	=17	=17	=17	=17	=17
!	!	!	!	!	!	!	!	!	!	!	!	!	!	!	!LO:DY:a	!	!
8E\L	6_ -5_	(8g'/L	.	(8b-'/L	.	.	.	.	.	.	.	16b-\LL	.	(8C'/L	p	(8c'/L	.
.	.	.	.	.	.	.	.	.	.	.	.	16cc\	.	.	.	.	.
8E\	.	8g'/	.	8b-'/	.	.	.	.	.	.	.	16dd\	.	8C'/	.	8c'/	.
.	.	.	.	.	.	.	.	.	.	.	.	16g\JJ	.	.	.	.	.
8E\	.	8g'/	.	8b-'/	.	.	.	.	.	.	.	16g\LL	.	8C'/	.	8c'/	.
.	.	.	.	.	.	.	.	.	.	.	.	16a\	.	.	.	.	.
8E\J	.	8g'/J)	.	8b-'/J)	.	.	.	.	.	.	.	16b-\	.	8C'/J)	.	8c'/J)	.
.	.	.	.	.	.	.	.	.	.	.	.	16e\JJ	.	.	.	.	.
8E\L	.	(8g'/L	.	(8b-'/L	.	.	.	.	.	.	.	16e\LL	.	(8C'/L	.	(8c'/L	.
.	.	.	.	.	.	.	.	.	.	.	.	16f\	.	.	.	.	.
8E\	.	8g'/	.	8b-'/	.	.	.	.	.	.	.	16g\	.	8C'/	.	8c'/	.
.	.	.	.	.	.	.	.	.	.	.	.	16a\JJ	.	.	.	.	.
8E\	.	8g'/	.	8b-'/	.	.	.	.	.	.	.	(16b-\LL	.	8C'/	.	8c'/	.
.	.	.	.	.	.	.	.	.	.	.	.	16a\JJ)	.	.	.	.	.
8E\J	x	8g'/J)	.	8b-'/J)	.	.	.	.	.	.	.	8b-\	-lum,	8C'/J)	.	8c'/J)	.
=18	=18	=18	=18	=18	=18	=18	=18	=18	=18	=18	=18	=18	=18	=18	=18	=18	=18
4r	.	4f/	.	4a/	.	1r	.	.	.	.	.	8r	.	4F/	.	4F/	.
.	.	.	.	.	.	.	.	.	.	.	.	8cc\	sca-	.	.	.	.
8r	.	4r	.	4r	.	.	.	.	.	.	.	8ff\	-bel-	4r	.	4r	.
8F\	.	.	.	.	.	.	.	.	.	.	.	8a\	-lum	.	.	.	.
!LO:TX:a:t=P:problem=mixed beam	!	!	!	!LO:SIC:o:s:=:v:pauza półnutowa nad 2 linią	!	!	!	!	!	!	!	!	!	!	!	!	!
8d\L	.	2r	.	2r	.	.	.	.	.	.	.	8f/	pe-	2r	.	2r	.
8B-\	.	.	.	.	.	.	.	.	.	.	.	16dd\	-dum	.	.	.	.
.	.	.	.	.	.	.	.	.	.	.	.	16g/	tu-	.	.	.	.
!	!	!	!	!	!	!	!	!	!	!	!	!LO:SIC:o:s:=:v:niejednoznaczny zapis ozdobnika [przyjęto mordent]	!	!	!	!	!
8c\	.	.	.	.	.	.	.	.	.	.	.	4gM/	-o-	.	.	.	.
8C/J	.	.	.	.	.	.	.	.	.	.	.	.	.	.	.	.	.
=19	=19	=19	=19	=19	=19	=19-	=19	=19	=19	=19	=19	=19	=19	=19	=19	=19	=19
!	!	!	!	!LO:TX:b:t=Bas	!	!LO:TX:a:t=Solo	!	!	!	!	!	!	!	!	!	!	!
8r	.	00r	.	00r	.	8c\	Vir-	.	.	.	.	4f/	-rum,	00r	.	00r	.
16F\LL	.	.	.	.	.	8F\	-gam	.	.	.	.	.	.	.	.	.	.
16G\JJ	6	.	.	.	.	.	.	.	.	.	.	.	.	.	.	.	.
8A\L	6	.	.	.	.	8r	.	.	.	.	.	4r	.	.	.	.	.
16A\L	6	.	.	.	.	(16F\LL	Vir-	.	.	.	.	.	.	.	.	.	.
16B-\JJ	6	.	.	.	.	16G\JJ)	.	.	.	.	.	.	.	.	.	.	.
!	!	!	!	!	!	!	!	!	!	!	!	!LO:SIC:o:s:=:v:brak kreski taktowej	!	!	!	!	!
8A\L	6	.	.	.	.	8A\	-gam	.	.	.	.	2r	.	.	.	.	.
8F\	.	.	.	.	.	(16A\LL	vir-	.	.	.	.	.	.	.	.	.	.
.	.	.	.	.	.	16B-\JJ)	.	.	.	.	.	.	.	.	.	.	.
!	!	!	!	!	!	!LO:LB:g=original	!	!	!	!	!	!	!	!	!	!	!
8E\	6	.	.	.	.	8c\	-tu-	.	.	.	.	.	.	.	.	.	.
8F\J	.	.	.	.	.	8F\	-tis	.	.	.	.	.	.	.	.	.	.
=20	=20	=20	=20	=20	=20	=20	=20	=20	=20	=20	=20	=20-	=20	=20	=20	=20	=20
!LO:TX:a:t=P:problem=mixed beam	!	!	!	!	!	!	!	!	!	!	!	!	!	!	!	!	!
8C/L	.	.	.	.	.	4c\	tu-	00r	.	00r	.	00r	.	.	.	.	.
16c\L	.	.	.	.	.	.	.	.	.	.	.	.	.	.	.	.	.
16B-\JJ	.	.	.	.	.	.	.	.	.	.	.	.	.	.	.	.	.
16A\LL	.	.	.	.	.	4c\	-ae	.	.	.	.	.	.	.	.	.	.
16G\	.	.	.	.	.	.	.	.	.	.	.	.	.	.	.	.	.
16F\	.	.	.	.	.	.	.	.	.	.	.	.	.	.	.	.	.
16E\JJ	.	.	.	.	.	.	.	.	.	.	.	.	.	.	.	.	.
4D/	.	.	.	.	.	8r	.	.	.	.	.	.	.	.	.	.	.
.	.	.	.	.	.	(16d\LL	e-	.	.	.	.	.	.	.	.	.	.
.	.	.	.	.	.	16c\JJ)	.	.	.	.	.	.	.	.	.	.	.
4G\	-	.	.	.	.	(16B-\LL	-mit-	.	.	.	.	.	.	.	.	.	.
.	.	.	.	.	.	16A\JJ)	.	.	.	.	.	.	.	.	.	.	.
.	.	.	.	.	.	(16G\LL	-tet	.	.	.	.	.	.	.	.	.	.
.	.	.	.	.	.	16F,<\JJ)	.	.	.	.	.	.	.	.	.	.	.
=21	=21	=21	=21	=21	=21	=21	=21	=21	=21	=21	=21	=21	=21	=21	=21	=21	=21
8C/L	.	.	.	.	.	8.E\	Do-	.	.	.	.	.	.	.	.	.	.
8D/J	6\	.	.	.	.	.	.	.	.	.	.	.	.	.	.	.	.
.	.	.	.	.	.	16D/	-mi-	.	.	.	.	.	.	.	.	.	.
8E\L	6	.	.	.	.	8C,</	-nus	.	.	.	.	.	.	.	.	.	.
8F\J	.	.	.	.	.	8F\	ex	.	.	.	.	.	.	.	.	.	.
8G\L	n	.	.	.	.	8G\L	Si-	.	.	.	.	.	.	.	.	.	.
8F\J	.	.	.	.	.	16A\L	.	.	.	.	.	.	.	.	.	.	.
.	.	.	.	.	.	16F\JJ	.	.	.	.	.	.	.	.	.	.	.
!LO:TX:a:t=P:problem=mixed beam	!	!	!	!	!	!LO:TX:a:t=P:problem=mixed beam	!	!	!	!	!	!	!	!	!	!	!
8G\L	4	.	.	.	.	8G\L	.	.	.	.	.	.	.	.	.	.	.
8GG/J	3	.	.	.	.	8GG/J	.	.	.	.	.	.	.	.	.	.	.
=22	=22	=22	=22	=22	=22	=22	=22	=22	=22	=22	=22	=22	=22	=22	=22	=22	=22
4C/	.	.	.	.	.	8C,</	-on	.	.	.	.	.	.	.	.	.	.
.	.	.	.	.	.	16C/	do-	.	.	.	.	.	.	.	.	.	.
.	.	.	.	.	.	16D/	-mi-	.	.	.	.	.	.	.	.	.	.
8r	.	.	.	.	.	8E\	-na-	.	.	.	.	.	.	.	.	.	.
16C/LL	.	.	.	.	.	16E\	-re	.	.	.	.	.	.	.	.	.	.
16D/JJ	.	.	.	.	.	16F\	in	.	.	.	.	.	.	.	.	.	.
8E\L	.	.	.	.	.	16G\	me-	.	.	.	.	.	.	.	.	.	.
.	.	.	.	.	.	16C/	-di-	.	.	.	.	.	.	.	.	.	.
!	!	!	!	!	!	!LO:LB:g=original	!	!	!	!	!	!	!	!	!	!	!
16E\L	.	.	.	.	.	8C/	-o	.	.	.	.	.	.	.	.	.	.
16F\JJ	.	.	.	.	.	.	.	.	.	.	.	.	.	.	.	.	.
!LO:TX:a:t=P:problem=mixed beam	!	!	!	!	!	!	!	!	!	!	!	!	!	!	!	!	!
8G\L	.	.	.	.	.	8r	.	.	.	.	.	.	.	.	.	.	.
8C#X/J	6	.	.	.	.	8A\	i-	.	.	.	.	.	.	.	.	.	.
=23	=23	=23	=23	=23	=23	=23	=23	=23	=23	=23	=23	=23	=23	=23	=23	=23	=23
8D\L	.	1r	.	1r	.	8A\	-ni-	.	.	.	.	.	.	00r	.	00r	.
8E\	.	.	.	.	.	8G\	-mi-	.	.	.	.	.	.	.	.	.	.
8F\	.	.	.	.	.	8F\	-co-	.	.	.	.	.	.	.	.	.	.
8D\J	.	.	.	.	.	16E\	-rum	.	.	.	.	.	.	.	.	.	.
.	.	.	.	.	.	16D\	tu-	.	.	.	.	.	.	.	.	.	.
8G\L	.	.	.	.	.	16B-\LL	-o-	.	.	.	.	.	.	.	.	.	.
.	.	.	.	.	.	16A\	.	.	.	.	.	.	.	.	.	.	.
16F\L	.	.	.	.	.	16G\	.	.	.	.	.	.	.	.	.	.	.
16E\JJ	.	.	.	.	.	16B-\JJ	.	.	.	.	.	.	.	.	.	.	.
!LO:TX:a:t=P:problem=mixed beam	!	!	!	!	!	!LO:TX:a:t=P:problem=mixed beam	!	!	!	!	!	!	!	!	!	!	!
8A\L	4	.	.	.	.	8A\L	.	.	.	.	.	.	.	.	.	.	.
8AA/J	3	.	.	.	.	8AA/J	.	.	.	.	.	.	.	.	.	.	.
!	!	!	!	!LO:TX:b:t=Verte Cito	!	!	!	!	!	!	!	!	!	!	!	!	!
!LO:LB:g=original	!	!	!	!LO:PB:g=original	!	!	!	!	!	!	!	!	!	!	!	!	!
=24	=24	=24	=24	=24	=24	=24	=24	=24	=24	=24-	=24	=24	=24	=24	=24	=24	=24
!	!	!	!	!LO:SIC:o:s:=:v:niejednoznaczny zapis artykulacji w tt. 24-28	!	!	!	!	!	!	!	!	!	!	!	!	!
!	!	!	!	!LO:SIC:o:s:=:v:pp = p&colon;p.	!	!	!	!	!	!	!	!	!	!	!	!	!
8D'\L	.	(8f'/L	.	(8a'/L	pp	4D/	-rum	00r	.	8r	.	00r	.	.	.	.	.
!	!	!	!	!	!	!	!	!	!	!LO:TX:a:t=Solo	!	!	!	!	!	!	!
8D'\	.	8f'/	.	8a'/	.	.	.	.	.	8a\	Te-	.	.	.	.	.	.
!	!	!	!	!LO:TX:b:t=A	!	!	!	!	!	!	!	!	!	!	!	!	!
8D'\	.	8f'/	.	8a'/	.	4r	.	.	.	8f\	-cum	.	.	.	.	.	.
8D'\J	.	8f'/J)	p	8a'/J)	.	.	.	.	.	8d\	prin-	.	.	.	.	.	.
8D'\L	-6_ 4_ 2_	(8e'/L	.	(8g'/L	.	2r	.	.	.	8.g\	-ci-	.	.	.	.	.	.
8D'\	.	8e'/	.	8g'/	.	.	.	.	.	.	.	.	.	.	.	.	.
.	.	.	.	.	.	.	.	.	.	16f\	-pi-	.	.	.	.	.	.
8D'\	.	8e'/	.	8g'/	.	.	.	.	.	8e\	-um	.	.	.	.	.	.
8D'\J	.	8e'/J)	.	8g'/J)	.	.	.	.	.	8d\	in	.	.	.	.	.	.
=25	=25	=25	=25	=25	=25	=25	=25	=25	=25	=25	=25	=25	=25	=25	=25	=25	=25
8C#X'/L	6_ 5_	8e'/L	.	8g'/L	.	00r	.	.	.	8e\	di-	.	.	.	.	.	.
8C#'/	.	8e'/	.	8g'/	.	.	.	.	.	16e\	-e	.	.	.	.	.	.
.	.	.	.	.	.	.	.	.	.	16f\	Vir-	.	.	.	.	.	.
8C#'/	.	8e'/	.	8g'/	.	.	.	.	.	8g\	-tu-	.	.	.	.	.	.
8C#'/J	.	8e'/J	.	8g'/J	.	.	.	.	.	8a\	-tis	.	.	.	.	.	.
8D'\L	x	8A'/L	.	8f'/L	.	.	.	.	.	8f\	tu-	.	.	.	.	.	.
8D'\	.	8f'/	.	8a'/	.	.	.	.	.	8d\	-ae	.	.	.	.	.	.
8D'\	.	8f'/	.	8a'/	.	.	.	.	.	8f\	in	.	.	.	.	.	.
8D'\J	.	8f'/J	.	8a'/J	.	.	.	.	.	8a\	splen-	.	.	.	.	.	.
=26	=26	=26	=26	=26	=26	=26	=26	=26	=26	=26	=26	=26	=26	=26	=26	=26	=26
8D'\L	6_ #4_ 2_	(8g#X'/L	.	8bn'\L	.	.	.	.	.	8.g#X\	-do-	.	.	.	.	.	.
8D'\	.	8g#'/	.	8b'\	.	.	.	.	.	.	.	.	.	.	.	.	.
.	.	.	.	.	.	.	.	.	.	16g#\	-ri-	.	.	.	.	.	.
8D'\	.	8g#'/	.	8b'\	.	.	.	.	.	8a\	-bus	.	.	.	.	.	.
8D'\J	.	8g#'/J)	.	8b'\J	.	.	.	.	.	8bn\	san-	.	.	.	.	.	.
!	!	!	!	!	!	!	!	!	!	!LO:LB:g=original	!	!	!	!	!	!	!
8C'/L	6_ 3_	(8e'/L	.	8cc'\L	.	.	.	.	.	8e\	-cto-	.	.	.	.	.	.
8C'/	.	8e'/	.	8cc'\	.	.	.	.	.	8e\	-rum	.	.	.	.	.	.
8C'/	.	8e'/	.	8cc'\	.	.	.	.	.	8r	.	.	.	.	.	.	.
*	*	*custos:e	*	*	*	*	*	*	*	*	*	*	*	*	*	*	*
8C'/J	.	8e'/J)	.	8cc'\J	.	.	.	.	.	8c/	ex	.	.	.	.	.	.
!	!	!LO:LB:g=original	!	!	!	!	!	!	!	!	!	!	!	!	!	!	!
=27	=27	=27	=27	=27	=27	=27	=27	=27	=27	=27	=27	=27	=27	=27	=27	=27	=27
!	!	!LO:SIC:o:s:=:v:błędnie wpisane znaki przykluczowe [a-]	!	!	!	!	!	!	!	!	!	!	!	!	!	!	!
8BB-X'/L	6_ 4_ 2_	8e'/L	.	8cc'\L	.	.	.	.	.	8.g\	u-	.	.	0r	.	0r	.
8BB-'/	.	8e'/	.	8cc'\	.	.	.	.	.	.	.	.	.	.	.	.	.
.	.	.	.	.	.	.	.	.	.	16f\	-te-	.	.	.	.	.	.
8BB-'/	.	8e'/	.	8cc'\	.	.	.	.	.	8e\	-ro	.	.	.	.	.	.
8BB-'/J	.	8e'/J	.	8cc'\J	.	.	.	.	.	8g\	an-	.	.	.	.	.	.
8AA'/L	6	8f'/L	.	8cc'\L	.	.	.	.	.	4c/	-te	.	.	.	.	.	.
8AA'/	.	8f'/	.	8cc'\	.	.	.	.	.	.	.	.	.	.	.	.	.
8AA'/	.	8f'/	.	8cc'\	.	.	.	.	.	4f\	lu-	.	.	.	.	.	.
8AA'/J	.	8f'/J	.	8cc'\J	.	.	.	.	.	.	.	.	.	.	.	.	.
=28	=28	=28	=28	=28	=28	=28	=28	=28	=28	=28	=28	=28	=28	=28	=28	=28	=28
8GG'/L	7	8g'/L	.	8b-X'/L	.	.	.	0r	.	(8f\L	-ci-	00r	.	.	.	.	.
8GG'/	.	8g'/	.	8b-'/	.	.	.	.	.	8e\J)	.	.	.	.	.	.	.
8GG'/	6	8g'/	.	8b-'/	.	.	.	.	.	8f\	-fe-	.	.	.	.	.	.
8GG'/J	.	8g'/J	.	8b-'/J	.	.	.	.	.	8g\	-rum	.	.	.	.	.	.
8FF/L	.	8c'/L	.	8a'/L	.	.	.	.	.	4a\	ge-	.	.	.	.	.	.
8FF/	.	8c'/	.	8f'/	.	.	.	.	.	.	.	.	.	.	.	.	.
8C/	4	8c'/	.	8f'/	.	.	.	.	.	8.g\	-nu-	.	.	.	.	.	.
8C/J	3	8c'/J	.	8e'/J	.	.	.	.	.	.	.	.	.	.	.	.	.
.	.	.	.	.	.	.	.	.	.	16f\	-i	.	.	.	.	.	.
!	!	!	!	!LO:LB:g=original	!	!	!	!	!	!	!	!	!	!	!	!	!
=29	=29	=29	=29	=29	=29	=29	=29	=29	=29	=29	=29	=29	=29	=29	=29	=29	=29
!LO:TX:a:t=P:problem=mixed beam	!	!	!	!	!	!	!	!	!	!	!	!	!	!	!	!	!
8FF/L	.	8c/L	.	8f/L	f	00r	.	.	.	4f\	te	.	.	8r	.	8r	.
!	!	!	!	!	!	!	!	!	!	!	!	!	!	!	!	!	!LO:DY:a
8F\	.	8a/	.	8a/J	.	.	.	.	.	.	.	.	.	8f\L	.	16a\LL	f
.	.	.	.	.	.	.	.	.	.	.	.	.	.	.	.	16g\JJ	.
8A\	.	8f/	f	8cc\L	.	.	.	.	.	4r	.	.	.	8c\	.	8f\L	.
8F\J	.	8a/J	.	8ff\J	.	.	.	.	.	.	.	.	.	8f\J	.	8a\J	.
!	!	!	!	!	!	!	!	!	!	!LO:SIC:o:s:=:v:brak kreski taktowej	!	!	!	!LO:TX:a:t=P:problem=mixed beam	!	!	!
4C/	.	4g/	.	8ee\L	.	.	.	.	.	2r	.	.	.	8g\L	.	8g\L	.
.	.	.	.	8cc\J	.	.	.	.	.	.	.	.	.	16c/L	.	16g\L	.
.	.	.	.	.	.	.	.	.	.	.	.	.	.	16c/JJ	.	16g\JJ	.
8c\L	.	8ee\L	.	8gg\L	.	.	.	.	.	.	.	.	.	8c/L	.	8g\L	.
8F\J	.	16ff\L	.	16aa\L	.	.	.	.	.	.	.	.	.	16f/L	.	16a\L	.
.	.	16dd\JJ	.	16ff\JJ	.	.	.	.	.	.	.	.	.	16A/JJ	.	16g\JJ	.
=30	=30	=30	=30	=30	=30	=30	=30	=30	=30	=30-	=30	=30	=30	=30	=30	=30	=30
!	!	!LO:TX:a:t=P:problem=mixed beam	!	!	!	!	!	!	!	!	!	!	!	!	!	!	!
4c\	.	8ee\L	.	8gg\L	.	.	.	1r	.	00r	.	.	.	4c/	.	8g\L	.
.	.	8e/J	.	8cc\J	.	.	.	.	.	.	.	.	.	.	.	8c\J	.
!	!	!	!	!	!	!	!	!	!	!	!	!	!	!LO:TX:a:t=P:problem=mixed beam	!	!	!
8c\L	.	8ee\L	.	8gg\L	.	.	.	.	.	.	.	.	.	8c/L	.	8g\L	.
16B-\L	.	8ff\J	.	8aa\J	.	.	.	.	.	.	.	.	.	8f\J	.	8a\J	.
16A\JJ	.	.	.	.	.	.	.	.	.	.	.	.	.	.	.	.	.
!	!	!	!	!	!	!	!	!	!	!	!	!	!	!	!	!LO:LB:g=original	!
8G\L	.	8gg\L	.	8bb-\L	.	.	.	.	.	.	.	.	.	8g\L	.	8b-\L	.
8B-\J	6	8gg\J	.	8bb-\J	.	.	.	.	.	.	.	.	.	8g\J	.	8b-\J	.
!LO:TX:a:t=P:problem=mixed beam	!	!	!	!	!	!	!	!	!	!	!	!	!	!	!	!	!
8c\L	7_	8gg\L	.	8bb-\L	.	.	.	.	.	.	.	.	.	8g\L	.	8b-\L	.
8C/J	.	16ff\L	.	16aa\L	.	.	.	.	.	.	.	.	.	16f\L	.	16a\L	.
.	.	16ee\JJ	.	16gg\JJ	.	.	.	.	.	.	.	.	.	16c\JJ	.	16g\JJ	.
!	!	!	!	!	!	!	!	!	!	!	!	!	!	!LO:LB:g=original	!	!	!
=31	=31	=31	=31	=31	=31	=31	=31	=31-	=31	=31	=31	=31	=31	=31	=31	=31	=31
!LO:TX:a:t=P:problem=mixed beam	!	!	!	!	!	!	!	!	!	!	!	!	!	!	!	!	!
8F\L	.	8ff\L	.	8aa\L	.	.	.	2r	.	.	.	.	.	8f\L	.	16a\LL	.
.	6	.	.	.	.	.	.	.	.	.	.	.	.	.	.	16g\	.
8BB-/J	5	16ee\L	.	16gg\L	.	.	.	.	.	.	.	.	.	16g\L	.	16f\	.
.	.	16dd\JJ	.	16ff\JJ	.	.	.	.	.	.	.	.	.	16c\JJ	.	16g\JJ	.
!	!	!	!	!LO:SIC:o:s:=:v:tr = tr&colon;&colon;global	!	!	!	!	!	!	!	!	!	!	!	!	!
4C/	4	8cc\L	.	8.eet\L	.	.	.	.	.	.	.	.	.	8c/L	.	8.g\L	.
.	3	8b-\J	.	.	.	.	.	.	.	.	.	.	.	8c/J	.	.	.
.	.	.	.	16ff\Jk	.	.	.	.	.	.	.	.	.	.	.	16f\Jk	.
4F\	.	4a/	.	4ff\	.	.	.	8r	.	.	.	.	.	4A/	.	4f\	.
!	!	!	!	!	!	!	!	!LO:TX:a:t=Solo	!	!	!	!	!	!	!	!	!
.	.	.	.	.	.	.	.	8c\	Ju-	.	.	.	.	.	.	.	.
4E\	6	4r	.	4r	.	.	.	(16c\LL	-ra-	.	.	.	.	4r	.	4r	.
.	.	.	.	.	.	.	.	16B-\JJ)	.	.	.	.	.	.	.	.	.
.	.	.	.	.	.	.	.	(16A/LL	-vit	.	.	.	.	.	.	.	.
.	.	.	.	.	.	.	.	16G/JJ)	.	.	.	.	.	.	.	.	.
!LO:LB:g=original	!	!	!	!	!	!	!	!	!	!	!	!	!	!	!	!	!
=32	=32	=32	=32	=32	=32	=32	=32	=32	=32	=32	=32	=32	=32	=32	=32	=32	=32
!	!	!LO:TX:a:t=1	!	!	!	!	!	!	!	!	!	!	!	!	!	!	!
8D/L	.	1r	.	1r	.	.	.	8.F/	Do-	.	.	00r	.	1r	.	1r	.
16C/L	.	.	.	.	.	.	.	.	.	.	.	.	.	.	.	.	.
16BB-/JJ	.	.	.	.	.	.	.	16F/	-mi-	.	.	.	.	.	.	.	.
8AA/L	.	.	.	.	.	.	.	8F,</	-nus	.	.	.	.	.	.	.	.
8BB-/J	.	.	.	.	.	.	.	8d\	et	.	.	.	.	.	.	.	.
!LO:TX:a:t=P:problem=mixed beam	!	!	!	!	!	!	!	!	!	!	!	!	!	!	!	!	!
8FF/L	.	.	.	.	.	.	.	8c\	non	.	.	.	.	.	.	.	.
!	!	!	!	!	!	!	!	!LO:SIC:o:s:=:v:l&colon;s=pae-	!	!	!	!	!	!	!	!	!
8F\J	.	.	.	.	.	.	.	16B-\	pe-	.	.	.	.	.	.	.	.
.	.	.	.	.	.	.	.	16A/	-ni-	.	.	.	.	.	.	.	.
8D\L	6	.	.	.	.	.	.	8B-\	-te-	.	.	.	.	.	.	.	.
8E\J	6	.	.	.	.	.	.	8c\	-bit	.	.	.	.	.	.	.	.
!	!	!LO:LB:g=original	!	!	!	!	!	!	!	!	!	!	!	!	!	!	!
=33	=33	=33	=33	=33	=33	=33	=33	=33	=33	=33	=33	=33	=33	=33	=33	=33	=33
!	!	!LO:SIC:o:s:=:v:przy kluczu [b-]	!	!	!	!	!	!	!	!	!	!	!	!	!	!	!
4F\	.	8r	.	8r	.	00r	.	8A/	e-	.	.	.	.	8r	.	8r	.
!	!	!	!	!	!	!	!	!	!	!	!	!	!	!LO:SIC:o:s:=:v:chorągiewki pojedynczych 8 z lewej strony	!	!LO:SIC:o:s:=:v:chorągiewki pojedynczych 8 z lewej strony	!
.	.	8cc\	.	8aa\	.	.	.	8F/	-um	.	.	.	.	8a\	.	8cc\	.
4c\	.	8b-/L	.	8gg\L	.	.	.	4r	.	.	.	.	.	8g\L	.	8b-\L	.
.	.	16a/L	.	16ff\L	.	.	.	.	.	.	.	.	.	16f\L	.	16a\L	.
.	.	16g/JJ	.	16ee\JJ	.	.	.	.	.	.	.	.	.	16c\JJ	.	16g\JJ	.
!	!	!	!	!	!	!	!	!LO:LB:g=original	!	!	!	!	!	!	!	!	!
4F\	.	8a/	.	8ff\	.	.	.	8r	.	.	.	.	.	8f\	.	8a\	.
.	.	8r	.	8r	.	.	.	8A/	tu	.	.	.	.	8r	.	8r	.
4r	.	4r	.	4r	.	.	.	8G/	es	.	.	.	.	4r	.	4r	.
.	.	.	.	.	.	.	.	8F/	sa-	.	.	.	.	.	.	.	.
=34	=34	=34	=34	=34	=34	=34	=34	=34	=34	=34	=34	=34	=34	=34	=34	=34	=34
8r	.	0r	.	0r	.	.	.	4.c\	-cer-	00r	.	.	.	0r	.	0r	.
8E\L	6_	.	.	.	.	.	.	.	.	.	.	.	.	.	.	.	.
8D\	.	.	.	.	.	.	.	.	.	.	.	.	.	.	.	.	.
8C\J	.	.	.	.	.	.	.	8c\	-dos	.	.	.	.	.	.	.	.
8F\L	6	.	.	.	.	.	.	8d\	in	.	.	.	.	.	.	.	.
16E\L	6	.	.	.	.	.	.	(16e\LL	ae-	.	.	.	.	.	.	.	.
16F\JJ	5	.	.	.	.	.	.	16c\JJ)	.	.	.	.	.	.	.	.	.
!LO:TX:a:t=P:problem=mixed beam	!	!	!	!	!	!	!	!	!	!	!	!	!	!	!	!	!
8G\L	4	.	.	.	.	.	.	4Bn\	-ter-	.	.	.	.	.	.	.	.
8GG/J	3	.	.	.	.	.	.	.	.	.	.	.	.	.	.	.	.
=35	=35	=35	=35	=35	=35	=35	=35	=35	=35	=35	=35	=35	=35	=35	=35	=35	=35
4C/	.	.	.	.	.	.	.	8c\	-num	.	.	.	.	.	.	.	.
.	.	.	.	.	.	.	.	(16e\LL	se-	.	.	.	.	.	.	.	.
.	.	.	.	.	.	.	.	16d\JJ)	.	.	.	.	.	.	.	.	.
4r	.	.	.	.	.	.	.	8c\	-cun-	.	.	.	.	.	.	.	.
.	.	.	.	.	.	.	.	8e,<\	-dum	.	.	.	.	.	.	.	.
8r	.	.	.	.	.	.	.	8f\	Or-	.	.	.	.	.	.	.	.
16A\LL	.	.	.	.	.	.	.	8c\	-di-	.	.	.	.	.	.	.	.
16G\JJ	.	.	.	.	.	.	.	.	.	.	.	.	.	.	.	.	.
8F\L	.	.	.	.	.	.	.	8A/	-nem	.	.	.	.	.	.	.	.
8A\J	.	.	.	.	.	.	.	8F/	Mel-	.	.	.	.	.	.	.	.
=36	=36	=36-	=36	=36	=36	=36	=36	=36	=36	=36	=36	=36	=36	=36	=36	=36-	=36
8B-\L	6	2r	.	2r	.	.	.	(8G/L	-chi-	.	.	0r	.	2r	.	2r	.
16A\L	6	.	.	.	.	.	.	16F/L	.	.	.	.	.	.	.	.	.
16G\JJ	.	.	.	.	.	.	.	16G/JJ	.	.	.	.	.	.	.	.	.
!LO:TX:a:t=P:problem=mixed beam	!	!	!	!	!	!	!	!	!	!	!	!	!	!	!	!	!
8c\L	.	.	.	.	.	.	.	8A/)	.	.	.	.	.	.	.	.	.
8C/J	4	.	.	.	.	.	.	16.G/LL	-se-	.	.	.	.	.	.	.	.
.	3	.	.	.	.	.	.	32F/JJk	.	.	.	.	.	.	.	.	.
!	!	!	!	!LO:LB:g=original	!	!	!	!	!	!	!	!	!	!	!	!	!
4F\	.	8r	.	8r	.	.	.	4F/	-dech	.	.	.	.	8r	.	8r	.
.	.	8a\L	.	8cc\L	.	.	.	.	.	.	.	.	.	8a\	.	8cc\	.
!	!	!	!	!	!	!	!	!LO:SIC:o:s:=:v:brak kreski taktowej	!	!	!	!	!	!	!	!	!
4FF/	.	8cc\	.	8ff\	.	.	.	4r	.	.	.	.	.	16a\LL	.	16cc\LL	.
.	.	.	.	.	.	.	.	.	.	.	.	.	.	16b-\	.	16dd\	.
.	.	8ff\J	.	8aa\J	.	.	.	.	.	.	.	.	.	16g\	.	16b-\	.
.	.	.	.	.	.	.	.	.	.	.	.	.	.	16a\JJ	.	16cc\JJ	.
=37	=37	=37	=37	=37	=37	=37	=37	=37-	=37	=37	=37	=37	=37	=37	=37	=37	=37
!	!	!LO:TX:a:t=P:problem=mixed beam	!	!	!	!	!	!	!	!	!	!	!	!	!	!	!
4BB-/	.	8d/L	.	8b-\L	.	0r	.	0r	.	.	.	.	.	8b-\L	.	8dd\L	.
.	.	8b-\	.	8dd\	.	.	.	.	.	.	.	.	.	16b-\L	.	16dd\L	.
.	.	.	.	.	.	.	.	.	.	.	.	.	.	16a\JJ	.	16cc\JJ	.
4GG/	.	8dd\	.	8gg\	.	.	.	.	.	.	.	.	.	16b-\LL	.	16b-\LL	.
.	.	.	.	.	.	.	.	.	.	.	.	.	.	16a\	.	16cc\	.
.	.	8gg\J	.	8bb-\J	.	.	.	.	.	.	.	.	.	16g\	.	16b-\	.
.	.	.	.	.	.	.	.	.	.	.	.	.	.	16f\JJ	.	16a\JJ	.
!LO:TX:a:t=P:problem=mixed beam	!	!	!	!	!	!	!	!	!	!	!	!	!	!	!	!	!
8C/L	.	8g/L	.	8ee\L	.	.	.	.	.	.	.	.	.	4c/	.	4g\	.
8c\J	.	16f/L	.	16dd\L	.	.	.	.	.	.	.	.	.	.	.	.	.
.	.	16e/JJ	.	16cc\JJ	.	.	.	.	.	.	.	.	.	.	.	.	.
8A\L	.	8a/L	.	8ff\L	.	.	.	.	.	.	.	.	.	8r	.	8r	.
16G\L	.	8a/J	.	8ff\J	.	.	.	.	.	.	.	.	.	8f\	.	8a\	.
16F\JJ	.	.	.	.	.	.	.	.	.	.	.	.	.	.	.	.	.
!	!	!	!	!	!	!	!	!	!	!	!	!	!	!	!	!LO:LB:g=original	!
=38	=38	=38	=38	=38	=38	=38	=38	=38	=38	=38	=38	=38	=38	=38	=38	=38	=38
!LO:TX:a:t=P:problem=mixed beam	!	!	!	!	!	!LO:SIC:o:s:=:v:kreska taktowa koniec/początek repetycji	!	!	!	!	!	!	!	!	!	!	!
8BB-/L	.	8dd\L	.	8ff\L	.	.	.	.	.	1r	.	1r	.	8f\L	.	8b-\L	.
8B-\J	.	16dd\L	.	16gg\L	.	.	.	.	.	.	.	.	.	16f\L	.	16a\L	.
.	.	16ee\JJ	.	16aa\JJ	.	.	.	.	.	.	.	.	.	16c\JJ	.	16g\JJ	.
!LO:TX:a:t=P:problem=mixed beam	!	!	!	!	!	!	!	!	!	!	!	!	!	!	!	!	!
8c\L	.	8g/L	.	8cc\L	.	.	.	.	.	.	.	.	.	8f\L	.	8a\L	.
8C/J	.	8cc/J	.	8ee\J	.	.	.	.	.	.	.	.	.	8c\J	.	16g\L	.
.	.	.	.	.	.	.	.	.	.	.	.	.	.	.	.	16f\JJ	.
!	!	!	!	!	!	!	!	!	!	!	!	!	!	!	!	!LO:TX:a:t=P:problem=mixed beam	!
4.F\	.	8a/L	.	8ff\L	.	.	.	.	.	.	.	.	.	8A/L	.	8f\L	.
.	.	16a/L	.	(16cc\L	.	.	.	.	.	.	.	.	.	16c/L	.	16c/L	.
.	.	16g/JJ	.	16b-\JJ)	.	.	.	.	.	.	.	.	.	16c/JJ	.	16c/JJ	.
!	!	!	!	!	!	!	!	!	!	!	!	!	!	!LO:LB:g=original	!	!	!
.	.	(16g/LL	.	(16b-/LL	.	.	.	.	.	.	.	.	.	16c/LL	.	16c/LL	.
.	.	16f/)	.	16a/)	.	.	.	.	.	.	.	.	.	16c/	.	16c/	.
8C/	.	(16f/	.	(16a/	.	.	.	.	.	.	.	.	.	16c/	.	16c/	.
.	.	16e/JJ)	.	16g/JJ)	.	.	.	.	.	.	.	.	.	16c/JJ	.	16c/JJ	.
*	*	*M6/8	*	*	*	*	*	*	*	*	*	*	*	*	*	*	*
!	!	!LO:PB:g=original	!	!	!	!	!	!	!	!LO:PB:g=original	!	!LO:LB:g=original	!	!	!	!	!
=39	=39	=39	=39	=39	=39	=:||:;39	=39	=39	=39	=||39	=39	=39	=39	=39	=39	=39	=39
*M6/8	*	*M6/8	*	*M6/8	*	*M6/8	*	*M6/8	*	*M6/8	*	*M6/8	*	*M6/8	*	*M6/8	*
!	!	!	!	!LO:TX:a:t=P:problem=mixed beam	!	!	!	!	!	!	!	!	!	!	!	!	!
!	!	!LO:TX:a:t=P:problem=mixed beam	!	!LO:TX:a:t=Tutti&colon;	!	!	!	!	!	!	!	!	!	!LO:TX:a:t=P:problem=mixed beam	!	!LO:TX:a:t=P:problem=mixed beam	!
!	!	!LO:TX:b:t=Dominus adextris	!	!LO:TX:b:t=Dominus a' dextris	!	!	!	!	!	!	!	!LO:TX:a:t=Tutti	!	!LO:TX:a:t=Tuti	!	!LO:TX:a:t=Tutti	!
4FF/	.	8f/L	.	8a/L	.	8.F\	Do-	8.A/	Do-	8.a\	Do-	8.cc\	Do-	8A/L	.	8c/L	.
.	.	16aa\L	.	16ccc\L	.	.	.	.	.	.	.	.	.	16a\L	.	16cc\L	.
.	.	16gg\J	.	16bb-\J	.	16F\	-mi-	16B-\	-mi-	16g\	-mi-	16b-\	-mi-	16g\J	.	16b-\J	.
8F\	.	8ff\J	.	8aa\J	.	8F\	-nus	8c\	-nus	8f\	-n(us)	8a,<\	-nus	8f\J	.	8a\J	.
!	!	!LO:TX:a:t=P:problem=mixed beam	!	!	!	!	!	!	!	!	!	!	!	!	!	!	!
*	*	*	*	*	*	*	*ij	*	*ij	*	*ij	*	*ij	*	*	*	*
4c\	.	16ee\LL	.	16gg\LL	.	8.c\	Do-	8.c\	Do-	8.e\	Do-	8.g/	Do-	8c/L	.	8g\L	.
.	.	16dd\	.	16ff\	.	.	.	.	.	.	.	.	.	.	.	.	.
.	.	16cc\	.	16ee\	.	.	.	.	.	.	.	.	.	16c/L	.	16g\L	.
.	.	16dd\	.	16ff\	.	16c\	-mi-	16c\	-mi-	16e\	-mi-	16g/	-mi-	16c/J	.	16g\J	.
8C/	.	16ee\	.	16gg\	.	8c\	-nus	8c\	-nus	8e\	-n(us)	8g/	-nus	8c/J	.	8g\J	.
.	.	16g/JJ	.	16cc\JJ	.	.	.	.	.	.	.	.	.	.	.	.	.
*	*	*	*	*	*	*	*Xij	*	*Xij	*	*Xij	*	*Xij	*	*	*	*
!	!	!	!	!	!	!LO:TX:b:t=Verte Cito	!	!	!	!	!	!	!	!	!	!	!
!	!	!	!	!	!	!LO:PB:g=original	!	!	!	!	!	!	!	!	!	!	!
=40	=40	=40	=40	=40	=40	=40	=40	=40	=40	=40	=40	=40	=40	=40	=40	=40	=40
8AA/L	6	16cc\LL	.	16ff\LL	.	8A\	a	8c\	a	8f\	a	8cc\	a	8f\L	.	8cc\L	.
.	.	16aa\	.	16ccc\	.	.	.	.	.	.	.	.	.	.	.	.	.
8BB-/	6	16gg\	.	16bb-\J	.	8B-\	dex-	8d\	dex-	(16g\LL	dex-	(16b-\LL	dex-	16g\L	.	16b-\L	.
!	!	!	!	!LO:SIC:o:s:=:v:niepełny takt [prawdopodobnie brak 16gg]	!	!	!	!	!	!	!	!	!	!	!	!	!
!	!	!	!	!LO:N:vis=8	!	!	!	!	!	!	!	!	!	!	!	!	!
.	5	16ff\J	.	8.aa\J	.	.	.	.	.	16f\JJ)	.	16a\JJ)	.	16f\J	.	16a\J	.
8C/J	.	8ee\J	.	.	.	8c\	-tris	8c\	-tris	8e\	-tris	8g,</	-tris	8c\J	.	8g\J	.
!LO:LB:g=original	!	!	!	!	!	!	!	!	!	!	!	!	!	!	!	!	!
!	!	!LO:TX:a:t=P:problem=mixed beam	!	!	!	!	!	!	!	!	!	!	!	!LO:TX:a:t=P:problem=mixed beam	!	!	!
4FF/	.	8ff\L	.	8aa\L	.	8F\	tu-	8c\	tu-	8f\	tu-	8a\	tu-	8f\L	.	8a\L	.
.	.	8a/	.	8ff\	.	8F\	-is	8c,<\	-is	8f,<\	-is	8a\	-is,	8A/J	.	8f\	.
8C/	.	8ee\J	.	8gg\J	.	8C/	Con-	8e\	Con-	8e\	Con-	8cc\	con-	8r	.	8c\J	.
!	!	!	!	!LO:LB:g=original	!	!	!	!	!	!	!	!	!	!	!	!	!
=41	=41	=41	=41	=41	=41	=41	=41	=41	=41	=41	=41	=41	=41	=41	=41	=41	=41
!LO:TX:a:t=P:problem=mixed beam	!	!	!	!	!	!	!	!	!	!	!	!	!	!	!	!	!
8F\L	.	16ff\LL	.	16aa\LL	.	8F\	-fre-	8c\	-fre-	8a\	-fre-	16cc\LL	-fre-	8r	.	8c/L	.
.	.	16cc\	.	16ccc\	.	.	.	.	.	.	.	16dd\	.	.	.	.	.
8FF/	.	16a\	.	16ff\	.	8FF,</	-git	8c\	-git	(16f\LL	-git	16cc\	.	8r	.	16c/L	.
.	.	16cc\	.	16ccc\	.	.	.	.	.	16g,<\JJ)	.	16dd\	.	.	.	16c/	.
8F\J	.	16ff\	.	16aa\	.	8F\	Con-	8f\	Con-	8a\	Con-	16cc\	.	8c/	.	16c/	.
.	.	16cc\JJ	.	16ccc\JJ	.	.	.	.	.	.	.	16dd\JJ	.	.	.	16c/JJ	.
8E\L	6	16ee\LL	.	16gg\LL	.	8E\	-fre-	8c\	-fre-	8g\	-fre-	16cc\LL	.	8c/L	.	8c/L	.
.	.	16cc\	.	16ccc\	.	.	.	.	.	.	.	16dd\	.	.	.	.	.
8C\	.	16g\	.	16ee\	.	8C/	-git	8e\	-git	8c,</	-git	16cc\	.	16c/L	.	8c/	.
.	.	16cc\	.	16ccc\	.	.	.	.	.	.	.	16dd\	.	16c/	.	.	.
8E\J	.	16gg\	.	16gg\	.	8E\	Con-	8c\	con-	8g\	Con-	16cc\	.	16c/	.	8c/J	.
.	.	16cc\JJ	.	16ccc\JJ	.	.	.	.	.	.	.	16dd\JJ	.	16c/JJ	.	.	.
=42	=42	=42	=42	=42	=42	=42	=42	=42	=42	=42	=42	=42	=42	=42	=42	=42	=42
!LO:TX:a:t=P:problem=mixed beam	!	!	!	!	!	!	!	!	!	!	!	!	!	!	!	!	!
8F\L	.	16ff\LL	.	16aa\LL	.	8F\	-fre-	8c\	-fre-	8a\	-fre-	16cc\LL	.	8c/L	.	8c/L	.
.	.	16cc\	.	16ccc\	.	.	.	.	.	.	.	16dd\	.	.	.	.	.
8FF/	.	16a\	.	16ff\	.	8FF,</	-git	8c\	-git	(16f\LL	-git	16cc\	.	8c/	.	16c/L	.
.	.	16cc\	.	16ccc\	.	.	.	.	.	16g\JJ)	.	16dd\	.	.	.	16c/	.
*	*	*	*	*	*	*	*	*	*	*	*ij	*	*	*	*	*	*
8F\J	.	16ff\	.	16aa\	.	8F\	Con-	8f\	Con-	8a\	Con-	16cc\	.	8c/J	.	16c/	.
.	.	16cc\JJ	.	16ccc\JJ	.	.	.	.	.	.	.	16dd\JJ	.	.	.	16c/JJ	.
8E\L	6	16ee\LL	.	16gg\LL	.	8E\	-fre-	8c\	-fre-	8g\	-fre-	8cc\	.	8c/L	.	8c/L	.
.	.	16cc\	.	16ccc\	.	.	.	.	.	.	.	.	.	.	.	.	.
!	!	!	!	!	!	!	!	!	!	!LO:LB:g=original	!	!	!	!	!	!	!
8C\	.	16g\	.	16ee\	.	8C/	-git	8e\	-git	8g,<\	-git	8cc\	-git	16c/L	.	8c/	.
.	.	16cc\	.	16gg\	.	.	.	.	.	.	.	.	.	16c/	.	.	.
!	!	!	!	!	!	!	!	!LO:PB:g=original	!	!	!	!	!	!	!	!	!
*	*	*	*	*	*	*	*ij	*	*	*	*Xij	*	*	*	*	*	*
!	!	!	!	!	!	!	!	!LO:SIC:o:s:=:v:s=8F#	!	!	!	!	!	!	!	!	!
!	!	!	!	!	!	!	!	!	!	!	!	!LO:LB:g=original	!	!	!	!	!
8A\J	#	16ee\	.	16cc#X\	.	8A\	Con-	8c\	Con-	8a\	Con-	8ee\	con-	16A/	.	8A/J	.
.	.	16cc#X\JJ	.	16ee\JJ	.	.	.	.	.	.	.	.	.	16A/JJ	.	.	.
!	!	!LO:LB:g=original	!	!	!	!	!	!	!	!	!	!	!	!	!	!LO:LB:g=original	!
=43	=43	=43	=43	=43	=43	=43	=43	=43	=43	=43	=43	=43	=43	=43	=43	=43	=43
!LO:SIC:o:s:=:v:nadmiarowy takt w T	!	!LO:SIC:o:s:=:v:nadmiarowy takt w T	!	!LO:SIC:o:s:=:v:nadmiarowy takt w T	!	!LO:SIC:o:s:=:v:nadmiarowy takt w T	!	!LO:SIC:o:s:=:v:zbędne powtórzenie t. 42	!	!LO:SIC:o:s:=:v:nadmiarowy takt w T	!	!LO:SIC:o:s:=:v:nadmiarowy takt w T	!	!LO:SIC:o:s:=:v:nadmiarowy takt w T	!	!LO:SIC:o:s:=:v:nadmiarowy takt w T	!
2.ryy	.	2.ryy	.	2.ryy	.	2.ryy	.	8c\	-fre-	2.ryy	.	2.ryy	.	2.ryy	.	2.ryy	.
.	.	.	.	.	.	.	.	8c\	-git	.	.	.	.	.	.	.	.
.	.	.	.	.	.	.	.	8f\	Con-	.	.	.	.	.	.	.	.
.	.	.	.	.	.	.	.	8c\	-fre-	.	.	.	.	.	.	.	.
.	.	.	.	.	.	.	.	8e\	-git	.	.	.	.	.	.	.	.
*	*	*	*	*	*	*	*	*	*ij	*	*	*	*	*	*	*	*
.	.	.	.	.	.	.	.	8c#X\	Con-	.	.	.	.	.	.	.	.
=44	=44	=44	=44	=44	=44	=44	=44	=44	=44	=44	=44	=44	=44	=44	=44	=44	=44
!LO:TX:a:t=P:problem=mixed beam	!	!LO:SIC:o:s:=:v:błędnie wpisane znaki przykluczowe [a-]	!	!	!	!	!	!	!	!	!	!	!	!	!	!	!
8d\L	.	16dd\LL	.	16ff\LL	.	8d\	-fre-	8d\	-fre-	16a\LL	-fre-	8ff\	-fre-	8A/L	.	8A/L	.
.	.	16a\	.	16aa\	.	.	.	.	.	16b-\	.	.	.	.	.	.	.
8D/	.	16f\	.	16dd\	.	8D,</	-git	8d,<\	-git	16a\	.	(16dd\LL	-git,	8A/	.	16A/L	.
.	.	16a\	.	16aa\	.	.	.	.	.	16b-\	.	16ee,<\JJ)	.	.	.	16A/	.
*	*	*	*	*	*	*	*Xij	*	*	*	*	*	*ij	*	*	*	*
8d\J	.	16dd\	.	16ff\	.	8d\	Con-	8f\	Con-	16a\	.	8ff\	con-	8A/J	.	16A/	.
.	.	16a\JJ	.	16aa\JJ	.	.	.	.	.	16b-\JJ	.	.	.	.	.	16A/JJ	.
!	!	!	!	!	!	!LO:LB:g=original	!	!	!	!	!	!	!	!	!	!	!
!	!	!	!	!	!	!LO:SIC:o:s:=:v:♯ nad nutą	!	!	!	!	!	!	!	!	!	!	!
8c#X\L	.	16cc#X\LL	.	16ee\LL	.	8c#X\	-fre-	8c#X\	-fre-	16a\LL	.	8ee\	-fre-	8A/L	.	8A/L	.
.	.	16a\	.	16aa\	.	.	.	.	.	16b-\	.	.	.	.	.	.	.
8A\	.	16e\	.	16cc#X\	.	8A\	-git	8e\	-git	16a\	.	8a,<\	-git,	16A/L	.	8A/	.
.	.	16a\	.	16aa\	.	.	.	.	.	16b-\	.	.	.	16A/	.	.	.
*	*	*	*	*	*	*	*	*	*	*	*	*	*Xij	*	*	*	*
8c#\J	.	16ee\	.	16ee\	.	8c#X\	Con-	8A/	Con-	16a\	.	8ee\	con-	16A/	.	8A/J	.
.	.	16a\JJ	.	16aa\JJ	.	.	.	.	.	16b-\JJ	.	.	.	16A/JJ	.	.	.
=45	=45	=45	=45	=45	=45	=45	=45	=45	=45	=45	=45	=45	=45	=45	=45	=45	=45
!LO:TX:a:t=P:problem=mixed beam	!	!	!	!	!	!	!	!	!	!	!	!	!	!	!	!	!
8d\L	.	16dd\LL	.	16ff\LL	.	8d\	-fre-	8d\	-fre-	16a\LL	.	8ff\	-fre-	8A/L	.	8A/L	.
.	.	16a\	.	16aa\	.	.	.	.	.	16b-\	.	.	.	.	.	.	.
8D/	.	16f\	.	16dd\	.	8D/	-git	8d\	-git	16a\	.	(16dd\LL	-git,	8A/	.	16A/L	.
.	.	16a\	.	16aa\	.	.	.	.	.	16b-\	.	16ee,<\JJ)	.	.	.	16A/	.
8d\J	.	16dd\	.	16ff\	.	8d\	Con-	8f\	Con-	16a\	.	8ff\	con-	8A/J	.	16A/	.
.	.	16a\JJ	.	16aa\JJ	.	.	.	.	.	16b-\JJ	.	.	.	.	.	16A/JJ	.
!	!	!	!	!	!	!	!	!	!	!	!	!	!	!LO:LB:g=original	!	!	!
8c#X\L	.	16cc#X\LL	.	16ee\LL	.	8c#X\	-fre-	8c#X\	-fre-	8b-\	.	8ee\	-fre-	8A/L	.	8A/L	.
.	.	16a\	.	16aa\	.	.	.	.	.	.	.	.	.	.	.	.	.
8A\	.	16e\	.	16cc#X\	.	8A\	-git	8c#,<\	-git	8a,<\	-git	8ee,<\	-git,	16A/L	.	8A/	.
*	*	*	*	*	*	*	*	*	*Xij	*	*	*	*Xij	*	*	*	*
.	.	16a\	.	16ee\	.	.	.	.	.	.	.	.	.	16A/	.	.	.
!	!	!LO:SIC:o:s:=:v:♭ w funkcji kasownika	!	!	!	!	!	!	!	!	!	!	!	!	!	!	!
8F\J	4	16ccn\	.	16a\	.	8F\	Con-	8cn\	Con-	8a\	Con-	8ff\	con-	16A/	.	8A/J	.
.	5	16a\JJ	.	16ee\JJ	.	.	.	.	.	.	.	.	.	16A/JJ	.	.	.
!	!	!	!	!LO:LB:g=original	!	!	!	!	!	!	!	!	!	!	!	!	!
=46	=46	=46	=46	=46	=46	=46	=46	=46	=46	=46	=46	=46	=46	=46	=46	=46	=46
!LO:TX:a:t=P:problem=mixed beam	!	!	!	!	!	!	!	!	!	!	!	!	!	!	!	!	!
8B-\L	.	16b-\LL	.	16dd\LL	.	8B-\	-fre-	8d\	-fre-	8f\	-fre-	16ff\LL	-fre-	8F/L	.	8F/L	.
.	.	16ff\	.	16ff\	.	.	.	.	.	.	.	16gg\	.	.	.	.	.
8BB-/	.	16dd\	.	16b-\	.	8BB-/	-git	(16B-\LL	-git	8f,<\	-git	16ff\	.	8F/	.	16F/L	.
.	.	16ff\	.	16ff\	.	.	.	16c\JJ)	.	.	.	16gg\	.	.	.	16F/	.
*	*	*	*	*	*	*	*Xij	*	*	*	*	*	*	*	*	*	*
8B-\J	.	16b-\	.	16dd\	.	8B-\	Con-	8d\	Con-	8b-\	Con-	16ff\	.	8F/J	.	16F/	.
.	.	16ff\JJ	.	16ff\JJ	.	.	.	.	.	.	.	16gg\JJ	.	.	.	16F/JJ	.
8A\L	6	16cc\LL	.	16cc\LL	.	8A\	-fre-	8c\	-fre-	8f\	-fre-	8ff\	.	8F/L	.	8F/L	.
.	.	16ff\	.	16ff\	.	.	.	.	.	.	.	.	.	.	.	.	.
!	!	!	!	!	!	!	!	!LO:LB:g=original	!	!	!	!	!	!	!	!	!
8F\	.	16a\	.	16a\	.	8F\	-git	8F,</	-git	8a\	-git	8cc,<\	-git	16F/L	.	8F/	.
.	.	16ff\	.	16ff\	.	.	.	.	.	.	.	.	.	16F/	.	.	.
*	*	*	*	*	*	*	*ij	*	*	*	*Xij	*	*	*	*	*	*
8A\J	.	16cc\	.	16cc\	.	8A\	Con-	8c\	Con-	8f\	Con-	8ff\	con-	16F/	.	8F/J	.
.	.	16ff\JJ	.	16ff\JJ	.	.	.	.	.	.	.	.	.	16F/JJ	.	.	.
=47	=47	=47	=47	=47	=47	=47	=47	=47	=47	=47	=47	=47	=47	=47	=47	=47	=47
!LO:TX:a:t=P:problem=mixed beam	!	!	!	!	!	!	!	!	!	!	!	!	!	!	!	!	!
8B-\L	.	16b-\LL	.	16dd\LL	.	8B-\	-fre-	8d\	-fre-	8f\	-fre-	8ff\	-fre-	8F/L	.	8F/L	.
.	.	16ff\	.	16ff\	.	.	.	.	.	.	.	.	.	.	.	.	.
8BB-/	.	16dd\	.	16b-\	.	8BB-,</	-git	(16B-\LL	-git	8f\	-git	8cc,<\	-git	8F/	.	16F/L	.
.	.	16ff\	.	16ff\	.	.	.	16c,<\JJ)	.	.	.	.	.	.	.	16F/	.
*	*	*	*	*	*	*	*	*	*ij	*	*Xij	*	*ij	*	*	*	*
8B-\J	.	16b-\	.	16dd\	.	8B-\	Con-	8d\	Con-	8b-\	Con-	8ff\	con-	8F/J	.	16F/	.
.	.	16ff\JJ	.	16ff\JJ	.	.	.	.	.	.	.	.	.	.	.	16F/JJ	.
!	!	!	!	!	!	!	!	!	!	!LO:SIC:o:s:=:v:nieczytelny zapis [zgodnie z t. 46 8f]	!	!	!	!	!	!LO:TX:a:t=P:problem=mixed beam	!
8A\L	6	16cc\LL	.	16cc\LL	.	8A\	-fre-	8c\	-fre-	8f\	-fre-	8ff\	-fre-	8F/L	.	8F/L	.
.	.	16ff\	.	16ff\	.	.	.	.	.	.	.	.	.	.	.	.	.
!	!	!	!	!	!	!	!	!	!	!LO:LB:g=original	!	!	!	!	!	!	!
8F\	.	16a\	.	16a\	.	8F,<\	-git	8c,<\	-git	8a,<\	-git	8f,</	-git	16F/L	.	8F/	.
.	.	16ff\	.	16ff\	.	.	.	.	.	.	.	.	.	16F/	.	.	.
*	*	*	*	*	*	*	*Xij	*	*Xij	*	*Xij	*	*Xij	*	*	*	*
*	*	*	*	*	*	*custos:B-	*	*	*	*	*	*	*	*	*	*	*
8A\J	6	16cc\	.	16cc\	.	8A\	in	8c\	in	8f\	in	8ff\	in	16F/	.	8f\J	.
.	.	16ff\JJ	.	16ff\JJ	.	.	.	.	.	.	.	.	.	16F/JJ	.	.	.
!	!	!LO:LB:g=original	!	!	!	!LO:LB:g=original	!	!	!	!	!	!LO:LB:g=original	!	!	!	!	!
=48	=48	=48	=48	=48	=48	=48	=48	=48	=48	=48	=48	=48	=48	=48	=48	=48	=48
!	!	!LO:SIC:o:s:=:v:błędnie wpisane znaki przykluczowe [a-]	!	!	!	!	!	!	!	!	!	!	!	!	!	!	!
8.B-\L	.	16dd\LL	.	16dd\LL	.	8.B-\	di-	8.B-\	di-	8.f\	di-	8.dd\	di-	8F/L	.	8.f\L	.
.	.	16b-\	.	16ff\	.	.	.	.	.	.	.	.	.	.	.	.	.
.	.	16dd\	.	16b-\	.	.	.	.	.	.	.	.	.	8F/	.	.	.
!	!	!	!	!	!	!	!	!	!	!LO:SIC:o:s:=:v:l&colon;s=-e	!	!	!	!	!	!	!
16A\K	6	16ff\	.	16ee\	.	16A\	-e	16c\	-e	16f\	-ae	16cc\	-e	.	.	16f\K	.
8G\J	6	16ee\	.	16gg\	.	8G\	i-	8e\	i-	8e\	i-	8b-\	i-	8A/J	.	8g\J	.
.	.	16gg\JJ	.	16bb-\JJ	.	.	.	.	.	.	.	.	.	.	.	.	.
!LO:TX:a:t=P:problem=mixed beam	!	!	!	!	!	!	!	!	!	!	!	!	!	!LO:TX:a:t=P:problem=mixed beam	!	!	!
8F\L	.	8cc\L	.	8aa\L	.	8F\	-rae	8c\	-rae	8f\	-rae	8a\	-rae	8f\L	.	16a\LL	.
.	.	.	.	.	.	.	.	.	.	.	.	.	.	.	.	16g\J	.
8c\	.	16ff\L	.	16aa\L	.	8c\	su-	8c\	su-	8f\	su-	8a\	su-	16c/L	.	8a\	.
.	.	16ff\	.	16gg\	.	.	.	.	.	.	.	.	.	16A/	.	.	.
8C/J	4	16ee\	.	16gg\	.	8C/	-ae	8G/	-ae	8e\	-ae	(16g/LL	-ae,	16F/	.	16g\L	.
.	3	16ee\JJ	.	16aa\JJ	.	.	.	.	.	.	.	16f/JJ)	.	16c/JJ	.	16f\JJ	.
=49	=49	=49	=49	=49	=49	=49	=49	=49	=49	=49	=49	=49	=49	=49	=49	=49	=49
!	!	!	!	!	!	!	!	!	!	!	!	!	!	!	!	!LO:TX:a:t=P:problem=mixed beam	!
4F\	.	16ff\LL	.	16aa\LL	.	8F\	re-	8A/	re-	8f\	re-	8f/	re-	8A/L	.	8f\L	.
.	.	16cc\	.	16ff\	.	.	.	.	.	.	.	.	.	.	.	.	.
.	.	16a\	.	16cc\	.	8F,<\	-ges	8A,</	-ges	8f,<\	-ges	8f,</	-ges,	8A/J	.	8c/	.
.	.	16cc\	.	16ff\	.	.	.	.	.	.	.	.	.	.	.	.	.
*	*	*	*	*	*	*	*	*	*	*	*	*	*	*	*	*custos:c	*
8F\	.	16f\	.	16a\	.	8F\	Con-	8A/	Con-	8f\	Con-	8cc\	con-	8r	.	8A/J	.
.	.	16a\JJ	.	16ff\JJ	.	.	.	.	.	.	.	.	.	.	.	.	.
!LO:TX:a:t=P:problem=mixed beam	!	!	!	!	!	!	!	!	!	!	!	!	!	!	!	!LO:TX:b:t=Verte Cito	!
!	!	!	!	!	!	!	!	!	!	!	!	!	!	!	!	!LO:PB:g=original	!
8B-\L	.	16b-\LL	.	16dd\LL	.	8B-\	-fre-	8B-\	-fre-	16f\LL	-fre-	8dd\	-fre-	8r	.	8F/L	.
.	.	16ff\	.	16ff\	.	.	.	.	.	16g\	.	.	.	.	.	.	.
8BB-/	.	16dd\	.	16b-\	.	8BB-,</	-git	8d\	-git	16f\	.	(16b-\LL	-git	8r	.	16F/L	.
.	.	16ff\	.	16ff\	.	.	.	.	.	16g\	.	16cc,<\JJ)	.	.	.	16F/	.
*	*	*	*	*	*	*	*	*	*ij	*	*	*	*ij	*	*	*	*
8B-\J	.	16b-\	.	16dd\	.	8B-\	Con-	8B-\	Con-	16f\	.	8dd\	con-	8F/	.	16F/	.
.	.	16ff\JJ	.	16ff\JJ	.	.	.	.	.	16g\JJ	.	.	.	.	.	16F/JJ	.
=50	=50	=50	=50	=50	=50	=50	=50	=50	=50	=50	=50	=50	=50	=50	=50	=50	=50
8A\L	6	16cc\LL	.	16cc\LL	.	8A\	-fre-	8c\	-fre-	16f\LL	.	8cc\	-fre-	8F/L	.	8F/L	.
.	.	16ff\	.	16ff\	.	.	.	.	.	16g\	.	.	.	.	.	.	.
8F\	.	16a\	.	16a\	.	8F,<\	-git	8A,</	-git	16f\	.	8f,</	-git	16F/L	.	8F/	.
.	.	16ff\	.	16ff\	.	.	.	.	.	16g\	.	.	.	16F/	.	.	.
8A\J	.	16cc\	.	16cc\	.	8A\	Con-	8c\	Con-	16f\	.	8cc\	con-	16F/	.	8F/J	.
.	.	16ff\JJ	.	16ff\JJ	.	.	.	.	.	16g\JJ	.	.	.	16F/JJ	.	.	.
!	!	!	!	!LO:LB:g=original	!	!	!	!LO:LB:g=original	!	!	!	!	!	!	!	!	!
!LO:TX:a:t=P:problem=mixed beam	!	!	!	!	!	!	!	!	!	!	!	!	!	!	!	!	!
8B-\L	.	16b-\LL	.	16dd\LL	.	8B-\	-fre-	8B-\	-fre-	16f\LL	.	8dd\	.	8F/L	.	8F/L	.
.	.	16ff\	.	16ff\	.	.	.	.	.	16g\	.	.	.	.	.	.	.
8BB-/	.	16dd\	.	16b-\	.	8BB-/	-git	8d\	-git	16f\	.	(16b-\LL	-git	8F/	.	16F/L	.
.	.	16ff\	.	16ff\	.	.	.	.	.	16g\	.	16cc,<\JJ)	.	.	.	16F/	.
*	*	*	*	*	*	*	*ij	*	*	*	*	*	*Xij	*	*	*	*
*	*	*	*	*	*	*	*	*	*	*	*	*	*	*custos:c	*	*	*
8B-\J	.	16b-\	.	16dd\	.	8B-\	Con-	8B-\	Con-	16f\	.	8dd\	con-	8F/J	.	16F/	.
.	.	16ff\JJ	.	16ff\JJ	.	.	.	.	.	16g\JJ	.	.	.	.	.	16F/JJ	.
!	!	!	!	!	!	!	!	!	!	!	!	!	!	!LO:TX:b:t=Verte Cito	!	!	!
!LO:LB:g=original	!	!	!	!	!	!	!	!	!	!	!	!	!	!LO:PB:g=original	!	!	!
=51	=51	=51	=51	=51	=51	=51	=51	=51	=51	=51	=51	=51	=51	=51	=51	=51	=51
!	!	!	!	!	!	!	!	!	!	!	!	!	!	!LO:TX:a:t=P:problem=mixed beam	!	!LO:TX:a:t=P:problem=mixed beam	!
8A\L	6	16cc\LL	.	16cc\LL	.	8A\	-fre-	8c\	-fre-	8f\	.	8cc\	-fre-	8F/L	.	8F/L	.
.	.	16ff\	.	16ff\	.	.	.	.	.	.	.	.	.	.	.	.	.
8F\	.	16a\	.	16a\	.	8F,<\	-git	8A,</	-git	8f\	-git	8f,</	-git	8F/	.	8F/	.
.	.	16ff\	.	16ff\	.	.	.	.	.	.	.	.	.	.	.	.	.
*	*	*	*	*	*	*	*Xij	*	*Xij	*	*	*	*	*	*	*	*
*	*	*	*	*	*	*custos:B-	*	*	*	*	*	*	*	*	*	*	*
!	!	!	!	!	!	!	!	!	!	!LO:LB:g=original	!	!	!	!	!	!	!
!	!	!	!	!	!	!	!	!	!	!LO:SIC:o:s:=:v:nieczytelny zapis [prawdopodobnie 8f]	!	!	!	!	!	!	!
8A\J	.	16cc\	.	16cc\	.	8A\	in	8c\	in	8r	.	8ff\	in	8f\J	.	8cc\J	.
.	.	16ff\JJ	.	16ff\JJ	.	.	.	.	.	.	.	.	.	.	.	.	.
!	!	!	!	!	!	!LO:LB:g=original	!	!	!	!	!	!	!	!	!	!	!
8.B-\L	.	16b-\LL	.	16dd\LL	.	8.B-\	di-	8.d\	di-	8.f\	di-	8.dd\	di-	8.f\L	.	8.b-\L	.
.	.	16dd\	.	16ff\	.	.	.	.	.	.	.	.	.	.	.	.	.
.	.	16b-\	.	16b-\	.	.	.	.	.	.	.	.	.	.	.	.	.
!	!	!	!	!	!	!LO:SIC:o:s:=:v:l&colon;s=-e	!	!	!	!LO:SIC:o:s:=:v:l&colon;s=-e	!	!	!	!	!	!	!
16A\K	6	16ff\	.	16ee\	.	16A\	-ae	16c\	-e	16f\	-ae	16dd,<\	-e,	16f\K	.	16cc\K	.
8G\J	6	16ee\	.	16gg\	.	8G\	i-	8B-\	i-	8g\	i-	8ee\	i-	8g\J	.	8b-\J	.
!	!	!LO:SIC:o:s:=:v:zapis nieczytelny [prawdopodobnie 16dd]	!	!	!	!	!	!	!	!	!	!	!	!	!	!	!
.	.	16dd\JJ	.	16bb-\JJ	.	.	.	.	.	.	.	.	.	.	.	.	.
!	!	!LO:LB:g=original	!	!	!	!	!	!	!	!	!	!LO:LB:g=original	!	!	!	!	!
=52	=52	=52	=52	=52	=52	=52	=52	=52	=52	=52	=52	=52	=52	=52	=52	=52	=52
!LO:TX:a:t=P:problem=mixed beam	!	!	!	!	!	!	!	!	!	!	!	!	!	!	!	!	!
8F\L	.	8cc\L	.	8aa\L	.	8F\	-rae	8c\	-rae	8a\	-rae	8ff,<\	-rae,	8a\L	.	8cc\L	.
8c\	.	16ff\L	.	16aa\L	.	8c\	su-	8c\	su-	8g\	su-	8ff\	su-	16g\L	.	8cc\	.
.	.	16ff\	.	16aa\	.	.	.	.	.	.	.	.	.	16f\J	.	.	.
8C/J	4	16ee\	.	16gg\	.	8C/	-ae	8c\	-ae	8f\	-ae	(16ee\LL	-ae,	8g\J	.	8cc\J	.
.	3	16ee\JJ	.	16gg\JJ	.	.	.	.	.	.	.	16dd,\JJ)	.	.	.	.	.
8.F\L	.	8ff\L	.	8.aa\L	.	8.F\	i-	8.A/	i-	8.a\	i-	8.cc\	i-	8.a\L	.	8.cc\L	.
.	.	16cc\L	.	.	.	.	.	.	.	.	.	.	.	.	.	.	.
16G\K	6	16b-\J	.	16gg\K	.	16G\	-rae	16B-\	-rae	16g\	-rae	16b-,<\	-rae,	16g\K	.	16b-\K	.
8A\J	6	8a\J	.	8ff\J	.	8A\	su-	8c\	su-	8f\	su-	8a\	su-	8f\J	.	8a\J	.
=53	=53	=53	=53	=53	=53	=53	=53	=53	=53	=53	=53	=53	=53	=53	=53	=53	=53
!LO:TX:a:t=P:problem=mixed beam	!	!	!	!	!	!	!	!	!	!	!	!	!	!	!	!	!
8B-\L	.	8dd\L	.	8gg\L	.	8B-\	-ae	8d\	-ae	(16g\LL	-ae	(16dd\LL	-ae,	8g\L	.	8g\L	.
.	.	.	.	.	.	.	.	.	.	16f\JJ)	.	16g,<\JJ)	.	.	.	.	.
!	!	!	!	!	!	!LO:TX:a:t=P:problem=mixed beam	!	!LO:TX:a:t=P:problem=mixed beam	!	!	!	!	!	!	!	!	!
8c\	.	8ff\	.	8gg\	.	(8c\L	Re-	(8c\L	re-	(8f\L	re-	4gM/	re-	8f\	.	8a\	.
8C/J	4	8ee\J	.	8ccc\J	.	8C/J)	.	8G/J)	.	8e\J)	.	.	.	8c\J	.	16g\L	.
.	3	.	.	.	.	.	.	.	.	.	.	.	.	.	.	16f\JJ	.
!	!	!LO:TX:a:t=P:problem=mixed beam	!	!	!	!	!	!	!	!	!	!	!	!	!	!LO:TX:a:t=P:problem=mixed beam	!
4F\	.	16ff\LL	.	16aa\LL	.	4F,<\	-ges	4A/	-ges	4f,<\	-ges	4f,</	-ges,	8A/L	.	8f\L	.
.	.	16aa\	.	16ff\	.	.	.	.	.	.	.	.	.	.	.	.	.
.	.	16ff\	.	16cc\	.	.	.	.	.	.	.	.	.	8A/J	.	8c/	.
.	.	16a/	.	16ff\	.	.	.	.	.	.	.	.	.	.	.	.	.
8C/	.	16cc/	.	16ee\	.	8C/	Con-	8e\	Con-	8g\	Con-	8cc\	con-	8r	.	8c/J	.
.	.	16ee/JJ	.	16gg\JJ	.	.	.	.	.	.	.	.	.	.	.	.	.
=54	=54	=54	=54	=54	=54	=54	=54	=54	=54	=54	=54	=54	=54	=54	=54	=54	=54
!LO:TX:a:t=P:problem=mixed beam	!	!	!	!	!	!	!	!	!	!	!	!	!	!	!	!	!
8F\L	.	16ff\LL	.	16aa\LL	.	8F\	-fre-	8c\	-fre-	8a\	-fre-	16cc\LL	-fre-	8r	.	8c/L	.
.	.	16cc\	.	16ccc\	.	.	.	.	.	.	.	16dd\	.	.	.	.	.
8FF/	.	16a\	.	16ff\	.	8FF/	-git	8c\	-git	(16f\LL	-git	16cc\	.	8r	.	16c/L	.
.	.	16cc\	.	16ccc\	.	.	.	.	.	16g,<\JJ)	.	16dd\	.	.	.	16c/	.
*	*	*	*	*	*	*	*ij	*	*ij	*	*ij	*	*	*	*	*	*
8F\J	.	16ff\	.	16aa\	.	8F\	Con-	8f\	Con-	8a\	Con-	16cc\	.	8c/	.	16c/	.
.	.	16cc\JJ	.	16ccc\JJ	.	.	.	.	.	.	.	16dd\JJ	.	.	.	16c/JJ	.
!	!	!	!	!	!	!	!	!LO:LB:g=original	!	!	!	!	!	!	!	!	!
8E\L	6	16ee\LL	.	16gg\LL	.	8E\	-fre-	8c\	-fre-	8g\	-fre-	16cc\LL	.	8c/L	.	8c/L	.
.	.	16cc\	.	16ccc\	.	.	.	.	.	.	.	16dd\	.	.	.	.	.
8C\	.	16g\	.	16ee\	.	8C,</	-git	8e,<\	-git	8c,</	-git	16cc\	.	16c/L	.	8c/	.
.	.	16cc\	.	16ccc\	.	.	.	.	.	.	.	16dd\	.	16c/	.	.	.
*	*	*	*	*	*	*	*	*	*	*	*Xij	*	*	*	*	*	*
8E\J	.	16gg\	.	16gg\	.	8E\	Con-	8c\	Con-	8g\	Con-	16cc\	.	16c/	.	8c/J	.
.	.	16cc\JJ	.	16ccc\JJ	.	.	.	.	.	.	.	16dd\JJ	.	16c/JJ	.	.	.
!	!	!	!	!	!	!LO:LB:g=original	!	!	!	!	!	!	!	!	!	!	!
=55	=55	=55	=55	=55	=55	=55	=55	=55	=55	=55	=55	=55	=55	=55	=55	=55	=55
!LO:TX:a:t=P:problem=mixed beam	!	!	!	!	!	!	!	!	!	!	!	!	!	!	!	!	!
8F\L	.	16ff\LL	.	16aa\LL	.	8F\	-fre-	8c\	-fre-	8a\	-fre-	16cc\LL	.	8c/L	.	8c/L	.
.	.	16cc\	.	16ccc\	.	.	.	.	.	.	.	16dd\	.	.	.	.	.
8FF/	.	16a\	.	16ff\	.	8FF,</	-git	8c,<\	-git	(16f\LL	-git	16cc\	.	8c/	.	16c/L	.
.	.	16cc\	.	16ccc\	.	.	.	.	.	16g,<\JJ)	.	16dd\	.	.	.	16c/	.
*	*	*	*	*	*	*	*	*	*	*	*ij	*	*	*	*	*	*
8F\J	.	16ff\	.	16aa\	.	8F\	Con-	8f\	Con-	8a\	Con-	16cc\	.	8c/J	.	16c/	.
.	.	16cc\JJ	.	16ccc\JJ	.	.	.	.	.	.	.	16dd\JJ	.	.	.	16c/JJ	.
!	!	!	!	!LO:LB:g=original	!	!	!	!	!	!	!	!	!	!	!	!	!
!	!	!	!	!	!	!	!	!	!	!	!	!	!	!LO:TX:a:t=P:problem=mixed beam	!	!LO:TX:a:t=P:problem=mixed beam	!
8E\L	6	16ee\LL	.	16gg\LL	.	8E\	-fre-	8c\	-fre-	8g\	-fre-	8cc\	.	8c/L	.	8c/L	.
.	.	16gg\	.	16ccc\	.	.	.	.	.	.	.	.	.	.	.	.	.
!	!	!	!	!	!	!	!	!	!	!LO:LB:g=original	!	!	!	!	!	!	!
8C\	.	16gg\	.	16ee\	.	8C,</	-git	8e,<\	-git	8g,\	-git	8cc,<\	-git,	8c/	.	8c/	.
.	.	16ee\	.	16gg\	.	.	.	.	.	.	.	.	.	.	.	.	.
*	*	*	*	*	*	*	*Xij	*	*Xij	*	*Xij	*	*	*	*	*	*
8E\J	.	16ff\	.	16ff\	.	8F\	in	8e\	in	8a\	in	8cc\	in	8a\J	.	8cc\J	.
.	.	16cc\JJ	.	16aa\JJ	.	.	.	.	.	.	.	.	.	.	.	.	.
=56	=56	=56	=56	=56	=56	=56	=56	=56	=56	=56	=56	=56	=56	=56	=56	=56	=56
8.B-\L	.	8dd\L	.	8ff\L	.	8.B-\	di-	8.d\	di-	8.f\	di-	8.dd\	di-	8.f\L	.	8.b-\L	.
.	.	16dd\L	.	16ff\L	.	.	.	.	.	.	.	.	.	.	.	.	.
!	!	!	!	!	!	!LO:SIC:o:s:=:v:l&colon;s=-e	!	!	!	!	!	!	!	!	!	!	!
16A\K	6	16dd\J	.	16ff\J	.	16A\	-ae	16c\	-e	16f\	-e	16dd\	-e,	16f\K	.	16cc\K	.
!	!	!LO:SIC:o:s:=:v:zapis nieczytelny [prawdopodobnie 8dd]	!	!	!	!	!	!	!	!	!	!	!	!	!	!	!
8G\J	6	8dd\J	.	8gg\J	.	8G\	i-	8B-\	i-	8g\	i-	8ee\	i-	8g\J	.	8b-\J	.
!	!	!LO:LB:g=original	!	!	!	!	!	!	!	!	!	!	!	!	!	!LO:LB:g=original	!
!LO:TX:a:t=P:problem=mixed beam	!	!LO:SIC:o:s:=:v:przy kluczu [b-]	!	!	!	!	!	!	!	!	!	!	!	!	!	!	!
8F\L	.	8ff\L	.	8aa\L	.	8F\	-rae	8c\	-rae	8a\	-rae	8ff\	-rae	8a\L	.	8cc\L	.
!	!	!	!	!	!	!	!	!	!	!	!	!LO:LB:g=original	!	!	!	!	!
8c\	.	16ff\L	.	16gg\L	.	8c\	su-	8c\	su-	8g\	su-	8ff\	su-	16g\L	.	8cc\	.
.	.	16ff\J	.	16ff\J	.	.	.	.	.	.	.	.	.	16f\J	.	.	.
8C/J	4	8ee\J	.	8gg\J	.	8C,</	-ae	8c\	-ae	8g\	-ae	(16ee\LL	-ae	8g\J	.	8cc\J	.
.	3	.	.	.	.	.	.	.	.	.	.	16dd\JJ)	.	.	.	.	.
=57	=57	=57	=57	=57	=57	=57	=57	=57	=57	=57	=57	=57	=57	=57	=57	=57	=57
8.F\L	.	8ff\L	.	8.aa\L	.	8.F\	i-	8.A\	i-	8.a\	i-	8.cc\	i-	8.a\L	.	8.cc\L	.
.	.	16cc\L	.	.	.	.	.	.	.	.	.	.	.	.	.	.	.
16G\K	6	16b-\J	.	16gg\K	.	16G\	-rae	16B-\	-rae	16g\	-rae	16b-\	-rae	16g\K	.	16b-\K	.
8A\J	6	8a\J	.	8ff\J	.	8A\	su-	8c\	su-	8f\	su-	8a\	su-	8f\J	.	8a\J	.
!	!	!	!	!	!	!	!	!	!	!	!	!	!	!LO:LB:g=original	!	!	!
!LO:TX:a:t=P:problem=mixed beam	!	!	!	!	!	!	!	!	!	!	!	!	!	!	!	!	!
8B-\L	6	8dd\L	.	8gg\L	.	8B-\	-ae	8d\	-ae	(16g\LL	-ae	(16dd\LL	-ae,	8F/L	.	8g\L	.
.	5	.	.	.	.	.	.	.	.	16f\JJ)	.	16g\JJ)	.	.	.	.	.
!	!	!	!	!	!	!LO:TX:a:t=P:problem=mixed beam	!	!LO:TX:a:t=P:problem=mixed beam	!	!	!	!	!	!	!	!LO:SIC:o:s:=:v:niejednoznaczny zapis ozdobnika	!
8c\	.	16ee\L	.	16gg\L	.	(8c\L	Re-	(8c\L	re-	(8f\L	re-	4gM/	re-	16c/L	.	8.gT\	.
.	.	16cc\	.	16ee\	.	.	.	.	.	.	.	.	.	16c/	.	.	.
8C/J	4	16g\	.	16cc\	.	8C/J)	.	8G/J)	.	8e\J)	.	.	.	16c/	.	.	.
.	3	16ee\JJ	.	16ccc\JJ	.	.	.	.	.	.	.	.	.	16c/JJ	.	16f\Jk	.
=58	=58	=58	=58	=58	=58	=58	=58	=58	=58	=58	=58	=58	=58	=58	=58	=58	=58
!	!	!LO:TX:a:t=P:problem=mixed beam	!	!	!	!	!	!	!	!	!	!	!	!	!	!LO:TX:a:t=P:problem=mixed beam	!
4F\	.	16ff\LL	.	16aa\LL	.	4F,<\	-ges	4A/	-ges	4f,<\	-ges	4f,</	-ges,	8A/L	.	8f/L	.
.	.	16aa\	.	16ff\	.	.	.	.	.	.	.	.	.	.	.	.	.
.	.	16ff\	.	16cc\	.	.	.	.	.	.	.	.	.	16c/L	.	16c/L	.
.	.	16a/	.	16ff\	.	.	.	.	.	.	.	.	.	16c/	.	16c/	.
8C/	.	16cc/	.	16ee\	.	8C/	Con-	8c\	Con-	8e\	Con-	8g/	con-	16c/	.	16c/	.
.	.	16ee/JJ	.	16gg\JJ	.	.	.	.	.	.	.	.	.	16c/JJ	.	16c/JJ	.
!	!	!	!	!	!	!	!	!LO:LB:g=original	!	!	!	!	!	!	!	!	!
!LO:TX:a:t=P:problem=mixed beam	!	!	!	!	!	!	!	!	!	!	!	!	!	!	!	!	!
8F\L	.	8ff\L	.	8aa\L	.	8F\	-fre-	8c\	-fre-	8f\	-fre-	8a\	-fre-	8A/L	.	8c/L	.
8FF/J	.	8ff\J	.	8aa\J	.	8F\	-git	8c\	-git	8f\	-git	8a\	-git,	8A/J	.	8c/J	.
!	!	!	!	!	!	!LO:LB:g=original	!	!	!	!	!	!	!	!	!	!	!
8r	.	8r	.	8r	.	8r	.	8r	.	8r	.	8r	.	8r	.	8r	.
=59	=59	=59	=59	=59	=59	=59	=59	=59	=59	=59-	=59	=59	=59	=59	=59	=59	=59
!LO:TX:a:t=Solo	!	!	!	!	!	!	!	!	!	!	!	!LO:TX:a:t=Solo.	!	!	!	!	!
!	!	!LO:N:vis=00	!	!LO:N:vis=00	!	!LO:N:vis=00	!	!LO:N:vis=00	!	!LO:N:vis=00	!	!	!	!LO:N:vis=00	!	!LO:N:vis=00	!
8D\L	.	0.r	.	0.r	.	0.r	.	0.r	.	0.r	.	4a\	Iu-	0.r	.	0.r	.
16D\L	.	.	.	.	.	.	.	.	.	.	.	.	.	.	.	.	.
16E\	.	.	.	.	.	.	.	.	.	.	.	.	.	.	.	.	.
16F\	6	.	.	.	.	.	.	.	.	.	.	8dd\	-di-	.	.	.	.
16G\JJ	5	.	.	.	.	.	.	.	.	.	.	.	.	.	.	.	.
8A\L	-	.	.	.	.	.	.	.	.	.	.	(8.cc#X\L	-ca-	.	.	.	.
8G\	.	.	.	.	.	.	.	.	.	.	.	.	.	.	.	.	.
.	.	.	.	.	.	.	.	.	.	.	.	16b-\Jk)	.	.	.	.	.
8F\J	.	.	.	.	.	.	.	.	.	.	.	8a\	-bit,	.	.	.	.
!LO:LB:g=original	!	!	!	!	!	!	!	!	!	!	!	!	!	!	!	!	!
=60	=60	=60	=60	=60	=60	=60	=60	=60	=60	=60	=60	=60	=60	=60	=60	=60	=60
!LO:TX:a:t=P:problem=mixed beam	!	!	!	!	!	!	!	!	!	!	!	!	!	!	!	!	!
8D/L	.	.	.	.	.	.	.	.	.	.	.	8ff\	in	.	.	.	.
8GG/	.	.	.	.	.	.	.	.	.	.	.	(16ee\LL	na-	.	.	.	.
.	6	.	.	.	.	.	.	.	.	.	.	16ff\JJ)	.	.	.	.	.
8G\J	5	.	.	.	.	.	.	.	.	.	.	(16dd\LL	-ti-	.	.	.	.
.	.	.	.	.	.	.	.	.	.	.	.	16ee\JJ)	.	.	.	.	.
4A\	#	.	.	.	.	.	.	.	.	.	.	8.cc#X\	-o-	.	.	.	.
.	.	.	.	.	.	.	.	.	.	.	.	16cc#\	-ni-	.	.	.	.
8G\	.	.	.	.	.	.	.	.	.	.	.	8dd,<\	-bus,	.	.	.	.
=61	=61	=61	=61	=61	=61	=61	=61	=61	=61	=61	=61	=61	=61	=61	=61	=61	=61
4F\	8	.	.	.	.	.	.	.	.	.	.	(16ff\LL	im-	.	.	.	.
.	-7	.	.	.	.	.	.	.	.	.	.	16ee-X\JJ)	.	.	.	.	.
.	.	.	.	.	.	.	.	.	.	.	.	(16ee-\	-ple-	.	.	.	.
!	!	!	!	!	!	!	!	!	!	!	!	!LO:SIC:o:s:=:v:zapis nieczytelny [prawdopodobnie 16dd]	!	!	!	!	!
.	.	.	.	.	.	.	.	.	.	.	.	16r)	.	.	.	.	.
!	!	!	!	!	!	!	!	!	!	!	!	!LO:LB:g=original	!	!	!	!	!
8A\	-5	.	.	.	.	.	.	.	.	.	.	16ee-X,<\	-bit	.	.	.	.
.	.	.	.	.	.	.	.	.	.	.	.	16cc\	ru-	.	.	.	.
!LO:TX:a:t=P:problem=mixed beam	!	!	!	!	!	!	!	!	!	!	!	!	!	!	!	!	!
8B-\L	.	.	.	.	.	.	.	.	.	.	.	(8.dd\L	-i-	.	.	.	.
16BB-/L	.	.	.	.	.	.	.	.	.	.	.	.	.	.	.	.	.
16C/	.	.	.	.	.	.	.	.	.	.	.	16cc\Jk)	.	.	.	.	.
16D/	.	.	.	.	.	.	.	.	.	.	.	8b-,<\	-nas	.	.	.	.
16E-X/JJ	.	.	.	.	.	.	.	.	.	.	.	.	.	.	.	.	.
=62	=62	=62	=62	=62	=62	=62	=62	=62	=62	=62	=62	=62	=62	=62	=62	=62	=62
8F\L	.	.	.	.	.	.	.	.	.	.	.	8r	.	.	.	.	.
8E-X\	.	.	.	.	.	.	.	.	.	.	.	8cc\	con-	.	.	.	.
8D\J	.	.	.	.	.	.	.	.	.	.	.	8ff\	-quas-	.	.	.	.
4E-X\	.	.	.	.	.	.	.	.	.	.	.	16b-\LL	-sa-	.	.	.	.
.	.	.	.	.	.	.	.	.	.	.	.	16a\	.	.	.	.	.
.	.	.	.	.	.	.	.	.	.	.	.	16b-\	.	.	.	.	.
.	.	.	.	.	.	.	.	.	.	.	.	16dd\	.	.	.	.	.
8r	.	.	.	.	.	.	.	.	.	.	.	16ee-X\	.	.	.	.	.
.	.	.	.	.	.	.	.	.	.	.	.	16dd\JJ	.	.	.	.	.
=63	=63	=63	=63	=63	=63	=63	=63	=63	=63	=63	=63	=63	=63	=63	=63	=63	=63
!	!	!LO:N:vis=00	!	!LO:N:vis=00	!	!LO:N:vis=0	!	!LO:N:vis=00	!	!LO:N:vis=00	!	!	!	!LO:N:vis=00	!	!LO:N:vis=00	!
4AA/	6	0.r	.	0.r	.	1.r	.	0.r	.	0.r	.	16cc\LL	.	0.r	.	0.r	.
.	.	.	.	.	.	.	.	.	.	.	.	16b-\	.	.	.	.	.
.	.	.	.	.	.	.	.	.	.	.	.	16cc\	.	.	.	.	.
.	.	.	.	.	.	.	.	.	.	.	.	16ee-X\	.	.	.	.	.
8r	.	.	.	.	.	.	.	.	.	.	.	16ff\	.	.	.	.	.
.	.	.	.	.	.	.	.	.	.	.	.	16ee-\JJ	.	.	.	.	.
4BB-/	.	.	.	.	.	.	.	.	.	.	.	16dd\LL	.	.	.	.	.
.	.	.	.	.	.	.	.	.	.	.	.	16cc\	.	.	.	.	.
.	.	.	.	.	.	.	.	.	.	.	.	16dd\	.	.	.	.	.
.	.	.	.	.	.	.	.	.	.	.	.	16ff\JJ	.	.	.	.	.
8E-X\	6 5	.	.	.	.	.	.	.	.	.	.	(16ee-X\LL	-bit,	.	.	.	.
.	.	.	.	.	.	.	.	.	.	.	.	16dd\JJ)	.	.	.	.	.
=64	=64	=64	=64	=64	=64	=64	=64	=64	=64	=64	=64	=64	=64	=64	=64	=64	=64
4F\	.	.	.	.	.	.	.	.	.	.	.	8.cc\	Ca-	.	.	.	.
.	.	.	.	.	.	.	.	.	.	.	.	16b-\	-pi-	.	.	.	.
8E-X\	6	.	.	.	.	.	.	.	.	.	.	8cc,<\	-ta,	.	.	.	.
4D/	#	.	.	.	.	.	.	.	.	.	.	8dd\	in	.	.	.	.
.	.	.	.	.	.	.	.	.	.	.	.	16dd\LL	ter-	.	.	.	.
.	.	.	.	.	.	.	.	.	.	.	.	16cc\	.	.	.	.	.
8F#X\	.	.	.	.	.	.	.	.	.	.	.	16b-\	.	.	.	.	.
.	.	.	.	.	.	.	.	.	.	.	.	16a\JJ	.	.	.	.	.
=65	=65	=65	=65	=65	=65	=65	=65	=65	=65	=65	=65	=65	=65	=65	=65	=65	=65
4.G\	5	.	.	.	.	2.r	.	.	.	.	.	16g,</	-ra	.	.	.	.
.	.	.	.	.	.	.	.	.	.	.	.	16gg\	in	.	.	.	.
.	6\	.	.	.	.	.	.	.	.	.	.	16gg\LL	ter-	.	.	.	.
.	.	.	.	.	.	.	.	.	.	.	.	16ff\	.	.	.	.	.
.	5	.	.	.	.	.	.	.	.	.	.	16een\JJ	.	.	.	.	.
!	!	!	!	!	!	!	!	!	!	!	!	!LO:LB:g=original	!	!	!	!	!
!	!	!	!	!	!	!	!	!	!	!	!	!LO:SIC:o:s:=:v:zapis nieczytelny [prawdopodobnie 16dd]	!	!	!	!	!
.	.	.	.	.	.	.	.	.	.	.	.	16r	.	.	.	.	.
16A\LL	#	.	.	.	.	.	.	.	.	.	.	8cc#X\	.	.	.	.	.
16G\	.	.	.	.	.	.	.	.	.	.	.	.	.	.	.	.	.
16F\	.	.	.	.	.	.	.	.	.	.	.	4dd\	-ra	.	.	.	.
16E\	.	.	.	.	.	.	.	.	.	.	.	.	.	.	.	.	.
16F\	6	.	.	.	.	.	.	.	.	.	.	.	.	.	.	.	.
16D\JJ	.	.	.	.	.	.	.	.	.	.	.	.	.	.	.	.	.
=66	=66	=66	=66	=66	=66	=66	=66	=66	=66	=66	=66	=66	=66	=66	=66	=66	=66
!LO:TX:a:t=P:problem=mixed beam	!	!	!	!LO:SIC:o:s:=:v:niejednoznaczny zapis&colon; wydłużona kreska taktowa i "a" / słowo "la"	!	!	!	!	!	!	!	!	!	!	!	!	!
8G\L	6	.	.	.	.	4.r	.	.	.	.	.	8ee\	mul-	.	.	.	.
8A\	.	.	.	.	.	.	.	.	.	.	.	4ee\	-to-	.	.	.	.
8AA/J	4	.	.	.	.	.	.	.	.	.	.	.	.	.	.	.	.
.	3	.	.	.	.	.	.	.	.	.	.	.	.	.	.	.	.
!	!	!	!	!	!	!LO:TX:a:t=Solo	!	!	!	!	!	!	!	!	!	!	!
4D/	n	.	.	.	.	8r	.	.	.	.	.	4.dd\	-rum	.	.	.	.
.	.	.	.	.	.	8D/	De	.	.	.	.	.	.	.	.	.	.
!	!	!	!	!	!	!LO:SIC:o:s:=:v:l&colon;s=tor-	!	!	!	!	!	!	!	!	!	!	!
8C#X/	6	.	.	.	.	8E\	to-	.	.	.	.	.	.	.	.	.	.
=67	=67	=67	=67	=67	=67	=67	=67	=67-	=67	=67-	=67	=67	=67	=67	=67	=67	=67
!LO:TX:a:t=P:problem=mixed beam	!	!	!	!	!	!	!	!	!	!	!	!	!	!	!	!	!
!	!	!LO:N:vis=00	!	!LO:N:vis=00	!	!	!	!	!	!	!	!0	!	!LO:N:vis=00	!	!LO:N:vis=00	!
8D/L	.	0.r	.	0.r	.	8F\	-ren-	8r	.	8r	.	0.r	.	0.r	.	0.r	.
!	!	!	!	!	!	!	!	!LO:TX:a:t=Solo	!	!LO:TX:a:t=Solo	!	!	!	!	!	!	!
8d\	.	.	.	.	.	8D/	-te	8d\	De	8f\	De	.	.	.	.	.	.
!	!	!	!	!	!	!	!	!LO:SIC:o:s:=:v:l&colon;s=tor-	!	!LO:SIC:o:s:=:v:l&colon;s=tor-	!	!	!	!	!	!	!
8A\J	#	.	.	.	.	8r	.	8c#X\	to-	8e\	to-	.	.	.	.	.	.
4D/	.	.	.	.	.	8r	.	8d\	-ren-	8f\	-ren-	.	.	.	.	.	.
*	*	*	*	*	*	*	*ij	*	*	*	*	*	*	*	*	*	*
.	.	.	.	.	.	8D/	Do	8A/	-te	8d\	-te	.	.	.	.	.	.
!	!	!	!	!	!	!LO:SIC:o:s:=:v:l&colon;s=tor-	!	!	!	!	!	!	!	!	!	!	!
8C#X/	.	.	.	.	.	8E\	to-	8r	.	8r	.	.	.	.	.	.	.
!	!	!	!	!	!	!	!	!	!	!LO:LB:g=original	!	!	!	!	!	!	!
=68	=68	=68	=68	=68	=68	=68	=68	=68	=68	=68	=68	=68	=68	=68	=68	=68	=68
4D/	.	.	.	.	.	8F\	-ren-	8r	.	8r	.	.	.	.	.	.	.
*	*	*	*	*	*	*	*	*	*	*	*ij	*	*	*	*	*	*
.	.	.	.	.	.	8D,</	-te	8d\	de	8f\	De	.	.	.	.	.	.
*	*	*	*	*	*	*	*Xij	*	*	*	*	*	*	*	*	*	*
!	!	!	!	!	!	!	!	!LO:SIC:o:s:=:v:l&colon;s=tor-	!	!	!	!	!	!	!	!	!
8AA/	.	.	.	.	.	8A\	tor-	8c#X\	to-	8e\	to-	.	.	.	.	.	.
!	!	!	!	!	!	!	!	!	!	!LO:SIC:o:s:=:v:l&colon;s=tor-	!	!	!	!	!	!	!
4D/	.	.	.	.	.	8d\	-ren-	8d\	-ren-	8f\	-ren-	.	.	.	.	.	.
.	.	.	.	.	.	8D/	-te	8A/	-te	8e\	-te	.	.	.	.	.	.
*	*	*	*	*	*	*	*	*	*	*	*Xij	*	*	*	*	*	*
!LO:N:vis=4	!	!	!	!	!	!	!	!	!	!	!	!	!	!	!	!	!
8G\	5 -3	.	.	.	.	8G\	in	8B-X\	in	8d\	in	.	.	.	.	.	.
=69	=69	=69	=69	=69	=69	=69	=69	=69	=69	=69	=69	=69	=69	=69	=69	=69	=69
8A\L	#	.	.	.	.	(8A\L	Vi-	4A/	Vi-	4c#X/	Vi-	.	.	.	.	.	.
8F\	.	.	.	.	.	8F\J)	.	.	.	.	.	.	.	.	.	.	.
8D\J	.	.	.	.	.	8D/	-a	8d\	-a	8d\	-a	.	.	.	.	.	.
!LO:LB:g=original	!	!	!	!	!	!	!	!	!	!	!	!	!	!	!	!	!
!LO:TX:a:t=P:problem=mixed beam	!	!	!	!	!	!	!	!	!	!	!	!	!	!	!	!	!
8AA/L	#	.	.	.	.	4A,<\	bi-	8c#X\	bi-	8e\	bi-	.	.	.	.	.	.
16A\L	.	.	.	.	.	.	.	8A/	-bet	8e,<\	-bet	.	.	.	.	.	.
16G\	.	.	.	.	.	.	.	.	.	.	.	.	.	.	.	.	.
16F\	.	.	.	.	.	8A\	-bet	8c#\	pro-	8e\	pro-	.	.	.	.	.	.
16E\JJ	.	.	.	.	.	.	.	.	.	.	.	.	.	.	.	.	.
!	!	!	!	!	!	!LO:LB:g=original	!	!	!	!	!	!	!	!	!	!	!
=70	=70	=70	=70	=70	=70	=70	=70	=70	=70	=70	=70	=70	=70	=70	=70	=70	=70
4.D/	.	.	.	.	.	8r	.	8.d\	-pte-	8.f\	-pte-	.	.	.	.	.	.
.	.	.	.	.	.	8r	.	.	.	.	.	.	.	.	.	.	.
.	.	.	.	.	.	.	.	16c#X\	-re-	16e\	-re-	.	.	.	.	.	.
!	!	!	!	!	!	!	!	!LO:LB:g=original	!	!	!	!	!	!	!	!	!
.	.	.	.	.	.	8d\	pro-	16d\	-a	16d\	-a	.	.	.	.	.	.
.	.	.	.	.	.	.	.	16A/	pro-	16e\	pro-	.	.	.	.	.	.
4.A\	#	.	.	.	.	8.c#X\	-pte-	8.A/	-pte-	8.c#X/	-pte-	.	.	.	.	.	.
.	.	.	.	.	.	16B-\	-re-	16B-\	-re-	16d\	-re-	.	.	.	.	.	.
.	.	.	.	.	.	8A\	-a	8c#X\	-a	8e\	-a	.	.	.	.	.	.
=71	=71	=71	=71	=71	=71	=71	=71	=71	=71	=71	=71	=71	=71	=71	=71	=71	=71
!	!	!	!	!	!	!	!	!	!	!LO:N:vis=2	!	!	!	!	!	!	!
!	!	!LO:N:vis=00	!	!LO:N:vis=00	!	!	!	!	!	!	!	!0	!	!LO:N:vis=00	!	!LO:N:vis=00	!
4.AA/	.	0.r	.	0.r	.	8r	.	2.r	.	4.r	.	0.r	.	0.r	.	0.r	.
.	.	.	.	.	.	8AA/	e-	.	.	.	.	.	.	.	.	.	.
.	.	.	.	.	.	8AA/	-xal-	.	.	.	.	.	.	.	.	.	.
4.D\	.	.	.	.	.	16D\LL	-ta-	.	.	8r	.	.	.	.	.	.	.
.	.	.	.	.	.	16C#X\	.	.	.	.	.	.	.	.	.	.	.
.	.	.	.	.	.	16D\	.	.	.	8f\	e-	.	.	.	.	.	.
.	.	.	.	.	.	16E\	.	.	.	.	.	.	.	.	.	.	.
.	.	.	.	.	.	16F\	.	.	.	8f\	-xal-	.	.	.	.	.	.
.	.	.	.	.	.	16D\JJ	.	.	.	.	.	.	.	.	.	.	.
!	!	!	!	!	!	!	!	!	!	!LO:LB:g=original	!	!	!	!	!	!	!
=72	=72	=72	=72	=72	=72	=72	=72	=72-	=72	=72	=72	=72	=72	=72	=72	=72	=72
!	!	!	!	!	!	!	!	!LO:N:vis=2	!	!LO:SIC:o:s:=:v:l&colon;s=-ta-	!	!	!	!	!	!	!
4.E\	7	.	.	.	.	16E\LL	.	4.r	.	16g\LL	.	.	.	.	.	.	.
.	.	.	.	.	.	16D\	.	.	.	16f\	.	.	.	.	.	.	.
.	.	.	.	.	.	16E\	.	.	.	16g\	.	.	.	.	.	.	.
.	6\	.	.	.	.	16F\	.	.	.	16a\	.	.	.	.	.	.	.
.	.	.	.	.	.	16G\	.	.	.	16b-\	.	.	.	.	.	.	.
.	.	.	.	.	.	16E\JJ	.	.	.	16g\JJ	.	.	.	.	.	.	.
4.F\	6	.	.	.	.	16F\LL	.	8r	.	16a\LL	.	.	.	.	.	.	.
.	.	.	.	.	.	16E\	.	.	.	16g\	.	.	.	.	.	.	.
.	.	.	.	.	.	16F\	.	8d\	e-	16a\	.	.	.	.	.	.	.
.	.	.	.	.	.	16G\	.	.	.	16g\	.	.	.	.	.	.	.
.	.	.	.	.	.	16A\	.	8d\	-xal-	16f\	.	.	.	.	.	.	.
.	.	.	.	.	.	16F\JJ	.	.	.	16a\JJ	.	.	.	.	.	.	.
=73	=73	=73	=73	=73	=73	=73	=73	=73	=73	=73	=73	=73	=73	=73	=73	=73	=73
4.G\	6	.	.	.	.	16G\LL	.	16e\LL	-ta-	16g\LL	.	.	.	.	.	.	.
.	.	.	.	.	.	16F\	.	16f\	.	16a\	.	.	.	.	.	.	.
.	.	.	.	.	.	16G\	.	16e\	.	16g\	.	.	.	.	.	.	.
.	5	.	.	.	.	16A\	.	16d\	.	16f\	.	.	.	.	.	.	.
.	.	.	.	.	.	16B-\	.	16e\	.	16g\	.	.	.	.	.	.	.
.	.	.	.	.	.	16G\JJ	.	16d\JJ	.	16f\JJ	.	.	.	.	.	.	.
4.A\	8 #	.	.	.	.	16A\LL	.	8c#X,<\	-bit	8e,<\	-bit	.	.	.	.	.	.
.	.	.	.	.	.	16G\	.	.	.	.	.	.	.	.	.	.	.
.	.	.	.	.	.	16A\	.	8c#\	e-	8e\	e-	.	.	.	.	.	.
.	7	.	.	.	.	16Bn\	.	.	.	.	.	.	.	.	.	.	.
.	.	.	.	.	.	16c#X\	.	8c#\	-xal-	8g\	-xal-	.	.	.	.	.	.
.	.	.	.	.	.	16A\JJ	.	.	.	.	.	.	.	.	.	.	.
!	!	!	!	!	!	!LO:LB:g=original	!	!	!	!	!	!	!	!	!	!	!
=74	=74	=74	=74	=74	=74	=74	=74	=74	=74	=74	=74	=74	=74	=74	=74	=74	=74
4D/	.	.	.	.	.	16d\LL	.	4.d\	-ta-	4.f\	-ta-	.	.	.	.	.	.
.	.	.	.	.	.	16cn\	.	.	.	.	.	.	.	.	.	.	.
.	.	.	.	.	.	16B-X\	.	.	.	.	.	.	.	.	.	.	.
.	.	.	.	.	.	16A\	.	.	.	.	.	.	.	.	.	.	.
8d\	.	.	.	.	.	16G\	.	.	.	.	.	.	.	.	.	.	.
.	.	.	.	.	.	16F\JJ	.	.	.	.	.	.	.	.	.	.	.
!LO:TX:a:t=P:problem=mixed beam	!	!	!	!	!	!	!	!	!	!	!	!	!	!	!	!	!
8G\L	6	.	.	.	.	(16E\LL	-bit	8d\	-bit	8g\	-bit	.	.	.	.	.	.
.	5	.	.	.	.	16D\JJ)	.	.	.	.	.	.	.	.	.	.	.
!	!	!	!	!	!	!LO:TX:a:t=P:problem=mixed beam	!	!	!	!	!	!	!	!	!	!	!
8A\	.	.	.	.	.	(8A\L	Ca-	(8d\L	Ca-	(8f\L	Ca-	.	.	.	.	.	.
8AA/J	#	.	.	.	.	8AA/J)	.	8c#X\J)	.	8e\J)	.	.	.	.	.	.	.
=75	=75	=75-	=75	=75	=75	=75	=75	=75	=75	=75	=75	=75	=75	=75	=75	=75	=75
!	!	!	!	!	!	!LO:TX:b:t=violin	!	!	!	!	!	!	!	!	!	!	!
!	!	!	!	!	!	!	!	!	!	!	!	!0	!	!LO:N:vis=00	!	!LO:N:vis=00	!
4D/	.	2.r	.	8r	.	4.D/	-put	4.d\	-put	4.d\	-put	0.r	.	0.r	.	0.r	.
!	!	!	!	!LO:TX:a:t=Solo.	!	!	!	!	!	!	!	!	!	!	!	!	!
.	.	.	.	8dd\L	.	.	.	.	.	.	.	.	.	.	.	.	.
8d\	.	.	.	8dd\J	.	.	.	.	.	.	.	.	.	.	.	.	.
4d\	4 2	.	.	16ee\LL	.	4r	.	4r	.	4r	.	.	.	.	.	.	.
.	.	.	.	16dd\	.	.	.	.	.	.	.	.	.	.	.	.	.
.	.	.	.	16ee\	.	.	.	.	.	.	.	.	.	.	.	.	.
.	.	.	.	16ff\	.	.	.	.	.	.	.	.	.	.	.	.	.
!	!	!	!	!	!	!LO:SIC:o:s:=:v:brak kreski taktowej	!	!	!	!	!	!	!	!	!	!	!
8c#X\	5	.	.	16gg\	.	8r	.	8r	.	8r	.	.	.	.	.	.	.
.	.	.	.	16ee\JJ	.	.	.	.	.	.	.	.	.	.	.	.	.
=76	=76	=76-	=76	=76	=76	=76-	=76	=76-	=76	=76-	=76	=76	=76	=76	=76	=76	=76
!	!	!	!	!	!	!LO:N:vis=00	!	!LO:N:vis=00	!	!LO:N:vis=00	!	!	!	!	!	!	!
4d\	.	8r	.	16ff\LL	.	0.r	.	0.r	.	0.r	.	.	.	.	.	.	.
.	.	.	.	16ee\	.	.	.	.	.	.	.	.	.	.	.	.	.
.	.	8dd\L	.	16ff\	.	.	.	.	.	.	.	.	.	.	.	.	.
.	.	.	.	16gg\	.	.	.	.	.	.	.	.	.	.	.	.	.
8D/	.	8dd\J	.	16aa\	.	.	.	.	.	.	.	.	.	.	.	.	.
.	.	.	.	16ff\JJ	.	.	.	.	.	.	.	.	.	.	.	.	.
!	!	!	!	!LO:LB:g=original	!	!	!	!	!	!	!	!	!	!	!	!	!
4C/	.	16ee\LL	.	16gg\LL	.	.	.	.	.	.	.	.	.	.	.	.	.
.	.	16dd\	.	16ff\	.	.	.	.	.	.	.	.	.	.	.	.	.
.	.	16ee\	.	16gg\	.	.	.	.	.	.	.	.	.	.	.	.	.
.	.	16ff\	.	16aa\	.	.	.	.	.	.	.	.	.	.	.	.	.
!LO:N:vis=4	!	!	!	!	!	!	!	!	!	!	!	!	!	!	!	!	!
8c\	7	16gg\	.	16bb-\	.	.	.	.	.	.	.	.	.	.	.	.	.
.	.	16ee\JJ	.	16gg\JJ	.	.	.	.	.	.	.	.	.	.	.	.	.
=77	=77	=77	=77	=77	=77	=77	=77	=77	=77	=77	=77	=77	=77	=77	=77	=77	=77
8r	.	16ff\LL	.	16aa\LL	.	.	.	.	.	.	.	.	.	.	.	.	.
.	.	16ee\	.	16gg\	.	.	.	.	.	.	.	.	.	.	.	.	.
8F\L	.	16ff\	.	16aa\	.	.	.	.	.	.	.	.	.	.	.	.	.
.	.	16gg\	.	16bb-\	.	.	.	.	.	.	.	.	.	.	.	.	.
8F\J	.	16aa\	.	16ccc\	.	.	.	.	.	.	.	.	.	.	.	.	.
.	.	16ff\JJ	.	16aa\JJ	.	.	.	.	.	.	.	.	.	.	.	.	.
!LO:TX:a:t=P:problem=mixed beam	!	!	!	!	!	!	!	!	!	!	!	!	!	!	!	!	!
16G\LL	.	8ff\L	.	16bb-\LL	.	.	.	.	.	.	.	.	.	.	.	.	.
16F\	.	.	.	16aa\	.	.	.	.	.	.	.	.	.	.	.	.	.
16G\	.	8ee\	.	16bb-\	.	.	.	.	.	.	.	.	.	.	.	.	.
16A\	.	.	.	16aa\	.	.	.	.	.	.	.	.	.	.	.	.	.
16B-\	.	8dd\J	.	16gg\	.	.	.	.	.	.	.	.	.	.	.	.	.
16G\JJ	.	.	.	16ff\JJ	.	.	.	.	.	.	.	.	.	.	.	.	.
!	!	!LO:N:vis=00	!	!	!	!	!	!	!	!	!	!	!	!	!	!	!
=78	=78	=78	=78	=78	=78	=78	=78	=78	=78	=78	=78	=78	=78	=78	=78	=78	=78
16A\LL	#	8.cc#X\L	.	8.ee\L	.	.	.	.	.	.	.	.	.	.	.	.	.
16B-\	.	.	.	.	.	.	.	.	.	.	.	.	.	.	.	.	.
16A\	.	.	.	.	.	.	.	.	.	.	.	.	.	.	.	.	.
16G\	.	16cc#\L	.	16ee\L	.	.	.	.	.	.	.	.	.	.	.	.	.
16F\	.	16dd\	.	16ff\	.	.	.	.	.	.	.	.	.	.	.	.	.
16E\JJ	.	16ee\JJ	.	16gg\JJ	.	.	.	.	.	.	.	.	.	.	.	.	.
!	!	!LO:TX:a:t=P:problem=mixed beam	!	!	!	!	!	!	!	!	!	!	!	!	!	!	!
8D\L	.	8ff\L	.	8aa\L	.	.	.	.	.	.	.	.	.	.	.	.	.
!LO:TX:a:t=P:problem=mixed beam	!	!	!	!	!	!	!	!	!	!	!	!	!	!	!	!	!
16A\L	.	8e/	.	8cc#X\	.	.	.	.	.	.	.	.	.	.	.	.	.
16G\J	.	.	.	.	.	.	.	.	.	.	.	.	.	.	.	.	.
8F\J	6	8f/J	.	8dd\J	.	.	.	.	.	.	.	.	.	.	.	.	.
!LO:PB:g=original	!	!	!	!	!	!	!	!	!	!	!	!	!	!	!	!	!
=79	=79	=79	=79	=79	=79	=79	=79	=79	=79	=79	=79	=79	=79	=79	=79	=79	=79
!LO:TX:a:t=P:problem=mixed beam	!	!	!	!	!	!	!	!	!	!	!	!	!	!	!	!	!
!	!	!	!	!	!	!	!	!	!	!	!	!	!	!LO:N:vis=0	!	!LO:N:vis=0	!
8G\L	6 5	16e/LL	.	8e/L	.	.	.	.	.	.	.	1.r	.	1.r	.	1.r	.
.	.	16d/J	.	.	.	.	.	.	.	.	.	.	.	.	.	.	.
8A\	.	8d/	.	8.et/	.	.	.	.	.	.	.	.	.	.	.	.	.
8AA/J	4	8c#X/J	.	.	.	.	.	.	.	.	.	.	.	.	.	.	.
.	3	.	.	16d/Jk	.	.	.	.	.	.	.	.	.	.	.	.	.
8D/	.	8d/L	.	8d/L	.	.	.	.	.	.	.	.	.	.	.	.	.
4AA/	.	8d/	.	8e/	.	.	.	.	.	.	.	.	.	.	.	.	.
.	.	8c#X/J	.	8e/J	.	.	.	.	.	.	.	.	.	.	.	.	.
=80	=80	=80	=80	=80	=80	=80	=80	=80	=80	=80	=80	=80	=80	=80	=80	=80	=80
!	!	!	!	!	!	!	!	!	!	!	!	!	!	!LO:SIC:o:s:=:v:kreska taktowa koniec/początek repetycji	!	!LO:SIC:o:s:=:v:kreska taktowa koniec/początek repetycji	!
4.D/	.	4.d;</	.	4.f#X/	.	2.r	.	2.r	.	2.r	.	.	.	.	.	.	.
8r	.	4r	.	4r	.	.	.	.	.	.	.	.	.	.	.	.	.
4r	.	.	.	.	.	.	.	.	.	.	.	.	.	.	.	.	.
.	.	8r	.	8r	.	.	.	.	.	.	.	.	.	.	.	.	.
!	!	!	!	!	!	!	!	!LO:LB:g=original	!	!	!	!	!	!	!	!	!
=81||	=81||	=81||	=81||	=81||	=81||	=81||	=81||	=81||	=81||	=81||	=81||	=81||	=81||	=81||	=81||	=81:||:	=81||
*M2/2	*	*M2/2	*	*M2/2	*	*M2/2	*	*M2/2	*	*M2/2	*	*M2/2	*	*M2/2	*	*M2/2	*
*met(c|)	*	*met(c|)	*	*met(c|)	*	*met(c|)	*	*met(c|)	*	*met(c|)	*	*met(c|)	*	*met(c|)	*	*met(c|)	*
*	*	*2\right	*	*2\right	*	*	*	*2\right	*	*2\right	*	*	*	*	*	*	*
!LO:SIC:o:s:=:v:oznaczenie metryczne C z kropką	!	!	!	!LO:SIC:o:s:=:v:oznaczenie metryczne C z kropką	!	!	!	!	!	!	!	!	!	!	!	!	!
!LO:TX:a:t=Tutti	!	!LO:TX:a:t=Tutti	!	!LO:TX:b:t=Gloria.	!	!	!	!	!	!	!	!LO:TX:rj:b:t=Tutti	!	!	!	!	!
!LO:TX:b:t=Gloria Patri	!	!LO:TX:b:t=Gloria	!	!LO:TX:a:t=ttutti.	!	!LO:TX:a:t=Tutti	!	!LO:TX:a:t=Tut	!	!LO:TX:a:t=Tut	!	!LO:SIC:o:s:=:v:oznaczenie metryczne C z kropką	!	!LO:TX:a:B:t=Grave	!	!LO:TX:a:B:t=Grave	!
!LO:TX:rj:a:B:t=Grave	!	!LO:TX:a:B:t=Grave	!	!LO:TX:a:B:t=grage	!	!LO:TX:a:B:t=Gravea	!	!LO:TX:a:B:t=Grave	!	!LO:TX:a:B:t=Grave	!	!LO:TX:rj:a:B:t=Gravè	!	!LO:TX:b:t=Gloria	!	!LO:TX:b:t=Glloria	!
2BB-/	.	2dd\	.	[2ff\	.	(2BB-/	Glo-	2.B-\	Glo-	2.f\	Glo-	(2dd\	Glo-	0r	.	0r	.
2F\	5 4	4.cc\	.	4ff\]	.	4F\)	.	.	.	.	.	4cc\)	.	.	.	.	.
.	3	.	.	8ff\L	.	8F\	-ri-	8A/	-ri-	8f\	-ri-	8cc\	-ri-	.	.	.	.
.	.	8cc\	.	8ff\J	.	8F\	-a	8A/	-a	8f\	-a	8cc\	-a,	.	.	.	.
!	!	!	!	!LO:LB:g=original	!	!	!	!	!	!LO:LB:g=original	!	!	!	!	!	!	!
=82	=82	=82	=82	=82	=82	=82	=82	=82	=82	=82	=82	=82	=82	=82	=82	=82	=82
4F\	4 2	4dd\	.	4gg\	.	4F\	Pa-	4B-\	Pa-	4g\	Pa-	4b-\	Pa-	.	.	.	.
2E-X\	6 3	8ee-X\L	.	8gg\L	.	8E-X\	-tri	8e-X\	-tri	8g\	-tri	8cc\	-tri	.	.	.	.
.	.	8cc\J	.	8gg\J	.	8E-\	et	8e-\	et	8g\	et	8cc\	et	.	.	.	.
.	4 2	8.a/L	.	4.ff\	.	8.E-\	Fi-	8.c\	Fi-	4f\	Fi-	8.a\	Fi-	.	.	.	.
.	.	16a/Jk	.	.	.	16E-\	-li-	16c\	-li-	.	.	16a\	-li-	.	.	.	.
4D/	6	8b-\L	.	.	.	4D/	-o	4d\	-o	8f\	-li-	4b-\	-o,	.	.	.	.
.	.	8dd\J	.	8ff\	.	.	.	.	.	8f\	-o	.	.	.	.	.	.
=83	=83	=83	=83	=83	=83	=83	=83	=83	=83	=83	=83	=83	=83	=83	=83	=83	=83
1C/	7 5 3	4g/	.	4ee\	.	8C/	et	8G/	et	8e\	et	8b-\	et	1r	.	1r	.
.	.	.	.	.	.	8C/	spi-	8G/	spi-	8e\	spi-	8b-\	spi-	.	.	.	.
.	x 6 4	2ff\	.	4aa\	.	8.C/	-ri-	8A/	-ri-	8f\	-ri-	8a\	-ri-	.	.	.	.
.	.	.	.	.	.	.	.	16A/	-tu-	16f\	-tu-	16b-\	-tu-	.	.	.	.
*	*	*	*	*	*	*custos:F	*	*	*	*	*	*	*	*	*	*	*
.	x x 4	.	.	.	.	16C/	-tu-	16B-\	-i	16f\	-i	16a\	-i	.	.	.	.
!	!	!	!	!	!	!LO:LB:g=original	!	!	!	!	!	!	!	!	!	!	!
.	.	.	.	4.ggT\	.	4F\	-i	2c\	san-	(4f\	san-	2g/	san-	.	.	.	.
!	!	!LO:SIC:o:s:=:v:zapis nieczytelny [prawdopodobnie 4ee]	!	!	!	!	!	!	!	!	!	!	!	!	!	!	!
.	x x 3	4ee\	.	.	.	4C/	san-	.	.	4e\)	.	.	.	.	.	.	.
.	.	.	.	8gg\	.	.	.	.	.	.	.	.	.	.	.	.	.
!	!	!LO:LB:g=original	!	!	!	!	!	!	!	!	!	!LO:LB:g=original	!	!	!	!	!
=84	=84	=84	=84	=84	=84	=84	=84	=84	=84	=84	=84	=84	=84	=84	=84	=84	=84
!	!	!	!	!	!	!	!	!	!	!	!	!	!	!	!	!LO:TX:a:B:t=Allegro	!
!	!	!	!	!	!	!	!	!	!	!	!	!	!	!	!	!LO:N:vis=4	!
!	!	!LO:TX:a:B:t=Allegro	!	!	!	!	!	!	!	!	!	!LO:TX:a:B:t=Allegro	!	!LO:TX:a:B:t=Allegro	!	!LO:SIC:o:s:=:v:niepełny takt (3 miary)	!
4FF/	.	4ff\	.	4aa\	.	4FF,</	-cto	4c\	-cto	4f,<\	-cto	8a\	-cto,	4r	.	2r	.
.	.	.	.	.	.	.	.	.	.	.	.	8cc\	si-	.	.	.	.
!	!	!	!	!LO:TX:a:B:t=allegro&colon;	!	!LO:TX:a:B:t=Allegro	!	!LO:TX:a:B:t=allegro	!	!LO:TX:a:B:t=allegro	!	!	!	!	!	!	!
8F\L	.	4r	.	4r	.	8F\	si-	8A/	si-	8f\	si-	(8cc\L	-cut,	8r	.	.	.
8F\J	.	.	.	.	.	8F\	-cut	8A/	-cut	8f\	-cut	8dd\J)	.	8A/	.	.	.
8E\L	6	16r	.	16r	.	8E\	e-	8c\	e-	8g\	e-	8ee\	e-	8c/L	.	8r	.
.	.	16g/LL	.	16cc\LL	.	.	.	.	.	.	.	.	.	.	.	.	.
8C\J	.	16g/	.	16cc\	.	8C/	-rat	8c\	-rat	8g\	-rat	8ee\	-rat	8c/J	.	8f\	.
.	.	16g/JJ	.	16cc\JJ	.	.	.	.	.	.	.	.	.	.	.	.	.
8r	.	16cc\LL	.	16ee\LL	.	4r	.	4r	.	4r	.	4r	.	8c/L	.	8g\L	.
.	.	16ee\	.	16gg\	.	.	.	.	.	.	.	.	.	.	.	.	.
8C/	.	16cc\	.	16ee\	.	.	.	.	.	.	.	.	.	16A/L	.	16f\L	.
.	.	16ee\JJ	.	16gg\JJ	.	.	.	.	.	.	.	.	.	16c/JJ	.	16g\JJ	.
=85	=85	=85	=85	=85	=85	=85	=85	=85	=85	=85	=85	=85	=85	=85	=85	=85	=85
!	!	!LO:TX:a:t=P:problem=mixed beam	!	!	!	!	!	!	!	!	!	!	!	!LO:TX:a:t=P:problem=mixed beam	!	!	!
4FF/	.	16ff\LL	.	16aa\LL	.	4r	.	4r	.	4r	.	4r	.	8f\L	.	8a\L	.
.	.	16a/JJ	.	16cc\	.	.	.	.	.	.	.	.	.	.	.	.	.
!	!	!LO:TX:a:t=P:problem=mixed beam	!	!	!	!	!	!	!	!	!	!	!	!	!	!	!
.	.	16ff\LL	.	16aa\	.	.	.	.	.	.	.	.	.	8A/J	.	8f\J	.
.	.	16a/JJ	.	16cc\JJ	.	.	.	.	.	.	.	.	.	.	.	.	.
!	!	!LO:TX:a:t=P:problem=mixed beam	!	!	!	!	!	!	!	!	!	!	!	!	!	!	!
*	*	*	*	*	*	*	*ij	*	*	*	*	*	*	*	*	*	*
8F\L	.	16ff\LL	.	16aa\LL	.	8F\	si-	8A/	si-	8f\	si-	8cc\	si-	8r	.	8r	.
.	.	16a/JJ	.	16ff\	.	.	.	.	.	.	.	.	.	.	.	.	.
!	!	!LO:TX:a:t=P:problem=mixed beam	!	!	!	!	!	!	!	!	!	!	!	!	!	!	!
8F\J	.	16ff\LL	.	16aa\	.	8F\	-cut	8A/	-cut	8f\	-cut	(16cc\LL	-cut,	8A/	.	8f\	.
.	.	16a/JJ	.	16ff\JJ	.	.	.	.	.	.	.	16dd\JJ)	.	.	.	.	.
!	!	!	!	!	!	!	!	!LO:LB:g=original	!	!	!	!	!	!	!	!	!
8E\L	6	16cc\LL	.	16gg\LL	.	8E\	e-	8c\	e-	8g\	e-	8ee\	e-	8c/L	.	8g\L	.
.	.	16g\	.	16ee\	.	.	.	.	.	.	.	.	.	.	.	.	.
8C\J	.	16cc\	.	16gg\	.	8C,</	-rat	8c\	-rat	8g\	-rat	8ee\	-rat,	8c/J	.	8g\J	.
.	.	16g\JJ	.	16ee\JJ	.	.	.	.	.	.	.	.	.	.	.	.	.
*	*	*	*	*	*	*	*Xij	*	*ij	*	*	*	*	*	*	*	*
!	!	!	!	!	!	!	!	!	!	!LO:LB:g=original	!	!	!	!	!	!	!
8c\L	.	16ee\LL	.	16cc\LL	.	8c\	si-	8G/	si-	8e\	si-	8cc\	si-	8c/L	.	8g\L	.
.	.	16cc\	.	16ee\	.	.	.	.	.	.	.	.	.	.	.	.	.
8c\J	.	16ee\	.	16cc\	.	8c\	-cut	8G/	-cut	8e\	-cut	8cc\	-cut,	16f/L	.	16a\L	.
.	.	16cc\JJ	.	16ee\JJ	.	.	.	.	.	.	.	.	.	16c/JJ	.	16g\JJ	.
=86	=86	=86	=86	=86	=86	=86	=86	=86	=86	=86	=86	=86	=86	=86	=86	=86	=86
8B-X\L	6_ 4_ 2_	16ee\LL	.	16gg\LL	.	8B-\	e-	8G/	e-	(16e\LL	e-	(16cc\LL	e-	4c/	.	4g\	.
.	.	16cc\	.	16ee\	.	.	.	.	.	16f\JJ)	.	16dd\JJ)	.	.	.	.	.
8B-\	.	16ee\	.	16gg\	.	8B-\	-rat	8G/	-rat	(16e\LL	-rat	(16cc\LL	-rat	.	.	.	.
.	.	16cc\JJ	.	16ee\JJ	.	.	.	.	.	16f\JJ)	.	16dd\JJ)	.	.	.	.	.
*	*	*	*	*	*	*	*	*	*Xij	*	*	*	*	*	*	*	*
8B-\	.	16ee\LL	.	16cc\LL	.	8B-\	in	8e\	in	(16g\LL	in	(16ee\LL	in	4r	.	4r	.
.	.	16cc\	.	16ee\	.	.	.	.	.	16f\JJ)	.	16dd\JJ)	.	.	.	.	.
8B-\J	.	16ee\	.	16cc\	.	8B-\	prin-	8e\	prin-	(16g\LL	prin-	(16ee\LL	prin-	.	.	.	.
.	.	16cc\JJ	.	16ee\JJ	.	.	.	.	.	16f\JJ)	.	16dd\JJ)	.	.	.	.	.
!	!	!	!	!LO:PB:g=original	!	!	!	!	!	!	!	!	!	!	!	!	!
8A\L	x 7_ #_	16ee\LL	.	16gg\LL	.	(16A\LL	-ci-	8.e\	-ci-	8.g\	-ci-	8.cc#X\	-ci-	8A/L	.	8A/L	.
.	.	16cc#X\	.	16ee\	.	16Bn\JJ)	.	.	.	.	.	.	.	.	.	.	.
8A\	.	16ee\	.	16gg\	.	(16A\LL	-pi-	.	.	.	.	.	.	16A/L	.	16A/L	.
.	.	16cc#X\JJ	.	16ee\JJ	.	16Bn\JJ)	.	16e\	-pi-	16g\	-pi-	16cc#\	-pi-	16A/JJ	.	16A/JJ	.
!	!	!	!	!	!	!	!	!	!	!	!	!	!	!LO:LB:g=original	!	!LO:LB:g=original	!
8A\	.	16ee\LL	.	16cc#X\LL	.	(16c#X\LL	-o	8e\	-o	8g,<\	-o	8dd\	-o	16A/LL	.	16A/LL	.
.	.	16cc#X\	.	16ee\	.	16B\JJ)	.	.	.	.	.	.	.	16A/	.	16A/	.
8A\J	.	16ee\	.	16cc#\	.	(16c#X\LL	et	8A/	et	8g\	et	8dd\	et	16A/	.	16A/	.
*	*	*	*	*	*	*custos:F	*	*	*	*	*	*	*	*	*	*	*
.	.	16cc#X\JJ	.	16ee\JJ	.	16A\JJ)	.	.	.	.	.	.	.	16A/JJ	.	16A/JJ	.
!	!	!	!	!	!	!LO:PB:g=original	!	!	!	!	!	!LO:LB:g=original	!	!	!	!	!
=87	=87	=87	=87	=87	=87	=87	=87	=87	=87	=87	=87	=87	=87	=87	=87	=87	=87
8F#X\L	x x -7	16ff#X\LL	.	16aa\LL	.	4.F#X\	nunc	4.c\	nunc	8a\	nunc	4.ee-X\	nunc	4A/	.	4A/	.
!	!	!LO:SIC:o:s:=:v:♭ w funkcji kasownika	!	!	!	!	!	!	!	!	!	!	!	!	!	!	!
.	.	16ccn\	.	16ff#X\	.	.	.	.	.	.	.	.	.	.	.	.	.
8F#\	.	16ff#\	.	16aa\	.	.	.	.	.	8a\	et	.	.	.	.	.	.
.	.	16cc\JJ	.	16ff#\JJ	.	.	.	.	.	.	.	.	.	.	.	.	.
!	!	!LO:LB:g=original	!	!	!	!	!	!	!	!	!	!	!	!	!	!	!
8F#\	.	16a\LL	.	16cc\LL	.	.	.	.	.	16a\LL	sem-	.	.	4r	.	4r	.
.	.	16cc\	.	16ee-X\	.	.	.	.	.	16b-\	.	.	.	.	.	.	.
8F#\J	.	16a\	.	16cc\	.	8F#\	et	8c\	et	16a\	.	8ee-\	et	.	.	.	.
.	.	16cc\JJ	.	16ee-X\JJ	.	.	.	.	.	16g\JJ	.	.	.	.	.	.	.
8G\L	x 7_ n3_	16ff#\LL	.	16dd\LL	.	8G\	sem-	8Bn\	sem-	4f,<\	-per	8dd\	sem-	4r	.	4r	.
.	.	16dd\	.	16bn\	.	.	.	.	.	.	.	.	.	.	.	.	.
8G\	.	16ff#\	.	16dd\	.	8G,<\	-per	8B\	-per	.	.	8dd\	-per,	.	.	.	.
.	.	16dd\JJ	.	16bn\JJ	.	.	.	.	.	.	.	.	.	.	.	.	.
8G\	.	16bn\LL	.	16g/LL	.	8G\	et	8d\	et	8f\	et	8bn\	et	8r	.	8r	.
.	.	16dd\	.	16bn/	.	.	.	.	.	.	.	.	.	.	.	.	.
!	!	!	!	!	!	!	!	!	!	!	!	!	!	!LO:SIC:o:s:=:v:chorągiewki 8 z lewej strony	!	!	!
8G\J	.	16b\	.	16g/	.	8G\	in	8d\	in	8f\	in	8b\	in	8g\	.	16g\LL	.
.	.	16dd\JJ	.	16b/JJ	.	.	.	.	.	.	.	.	.	.	.	16a\JJ	.
=88	=88	=88	=88	=88	=88	=88	=88	=88	=88	=88	=88	=88	=88	=88	=88	=88	=88
8E\L	x 6 -5	16ee\LL	.	16gg\LL	.	8E\	sae-	8c\	sae-	8b-\	sae-	8een\	sae-	16g\LL	.	16b-\LL	.
.	.	16cc\	.	16ee\	.	.	.	.	.	.	.	.	.	16g\	.	16b-\	.
8E\	.	16ee\	.	16gg\	.	16E\	-cu-	16c\	-cu-	16b-\	-cu-	16ee\	-cu-	16g\	.	16b-\	.
.	.	16cc\JJ	.	16ee\JJ	.	16E\	-la	16c\	-la	16b-\	-la	16ee\	-la	16g\JJ	.	16b-\JJ	.
8E\	.	16g/LL	.	16b-X/LL	.	8E\	sae-	8c\	sae-	8b-\	sae-	8ee\	sae-	8g\L	.	8b-\L	.
.	.	16b-X/	.	16ee/	.	.	.	.	.	.	.	.	.	.	.	.	.
8E\J	.	16g/	.	16b-/	.	8E\	-cu-	8c\	-cu-	8b-\	-cu-	8ee\	-cu-	16a\L	.	16cc\L	.
.	.	16b-/JJ	.	16ee/JJ	.	.	.	.	.	.	.	.	.	16g\JJ	.	16b-\JJ	.
!	!	!LO:TX:a:t=P:problem=mixed beam	!	!	!	!	!	!	!	!	!	!	!	!	!	!	!
8F\L	.	8a/L	.	8cc\L	.	8F\	-lo-	8c\	-lo-	8a\	-lo-	8cc\	-lo-	8f\L	.	8a\L	.
!	!	!	!	!	!	!	!	!LO:LB:g=original	!	!	!	!	!	!	!	!	!
8E\J	x x 6	8gg\J	.	8ccc\J	.	8E\	-rum	8c\	-rum	8g\	-rum	8cc\	-rum	8g\	.	8cc\J	.
!LO:LB:g=original	!	!	!	!	!	!	!	!	!	!LO:PB:g=original	!	!	!	!	!	!	!
8D\L	x x 7	8ff\L	.	8ccc\L	.	(8D\L	A-	4d\	A-	4f\	A-	(8cc\L	a-	8a\	.	8cc\L	.
8G\J	x x n	8gg\J	.	8bbn\J	.	8G\J)	.	.	.	.	.	8bn\J)	.	8g\J	.	8bX\J	.
=89	=89	=89	=89	=89	=89	=89	=89	=89	=89	=89	=89	=89	=89	=89	=89	=89	=89
!LO:TX:a:t=P:problem=mixed beam	!	!	!	!	!	!	!	!	!	!	!	!	!	!	!	!	!
8C/L	.	16gg\LL	.	16ccc\LL	.	8C/	-men	4e,<\	-men	4g,<\	-men	4cc,<\	-men,	4g\	.	4cc\	.
.	.	16ee\	.	16gg\	.	.	.	.	.	.	.	.	.	.	.	.	.
8c\	.	16gg\	.	16ccc\	.	(8c\L	glo-	.	.	.	.	.	.	.	.	.	.
.	.	16ee\JJ	.	16gg\JJ	.	.	.	.	.	.	.	.	.	.	.	.	.
8B-X\	4 2	16cc\LL	.	16ee\LL	.	8B-\J)	.	8c\	glo-	8g\	glo-	8ee\	glo-	16c/LL	.	16g\LL	.
.	.	16ee\	.	16gg\	.	.	.	.	.	.	.	.	.	16f/	.	16a\	.
8B-\J	.	16cc\	.	16ee\	.	16B-\	-ri-	16c\	-ri-	16g\	-ri-	16ee\	-ri-	16A/	.	16f\	.
.	.	16ee\JJ	.	16gg\JJ	.	16B-\	-a	16c\	-a	16g\	-a	16ee\	-a,	16c/JJ	.	16g\JJ	.
!	!	!	!	!LO:LB:g=original	!	!	!	!	!	!	!	!	!	!	!	!	!
8A\L	6	16ff\LL	.	16aa\LL	.	8A\	nunc	8c\	nunc	8a\	nunc	8ff\	nunc,	16f\LL	.	16a\LL	.
.	.	16cc\	.	16ff\	.	.	.	.	.	.	.	.	.	16g\	.	16b-\	.
*	*	*	*	*	*	*custos:G	*	*	*	*	*	*	*	*	*	*	*
!	!	!	!	!	!	!LO:LB:g=original	!	!	!	!	!	!	!	!	!	!	!
8A\	.	16ff\	.	16aa\	.	8A\	et	8c\	et	8a\	et	8ff\	et	16c\	.	16g\	.
.	.	16cc\JJ	.	16ff\JJ	.	.	.	.	.	.	.	.	.	16f\JJ	.	16a\JJ	.
8G\	6	16b-\LL	.	16ee\LL	.	8G\	sem-	8e\	sem-	8e\	sem-	8b-\	sem-	16g\LL	.	16b-\LL	.
.	.	16ee\	.	16gg\	.	.	.	.	.	.	.	.	.	16a\	.	16cc\	.
8G\J	.	16b-\	.	16ee\	.	8G\	-per	8e\	-per	8e\	-per	8b-\	-per,	16f\	.	16a\	.
.	.	16ee\JJ	.	16gg\JJ	.	.	.	.	.	.	.	.	.	16g\JJ	.	16b-\JJ	.
=90	=90	=90	=90	=90	=90	=90	=90	=90	=90	=90	=90	=90	=90	=90	=90	=90	=90
*	*	*^	*	*	*	*	*	*	*	*	*	*	*	*	*	*	*
8F\L	.	16raayy	16ff\LL	.	16aa\LL	.	8F\	et	8c\	et	8a\	et	8cc\	et	4a\	.	4cc\	.
.	.	16a/LL	16rgyy	.	16cc\	.	.	.	.	.	.	.	.	.	.	.	.	.
8F\	.	16raayy	16ff\JJ	.	16aa\	.	8F\	in	8c\	in	8a\	in	8cc\	in	.	.	.	.
.	.	16a/JJ	16rgyy	.	16cc\JJ	.	.	.	.	.	.	.	.	.	.	.	.	.
!	!	!	!	!	!	!	!	!	!	!	!	!	!LO:LB:g=original	!	!	!	!	!
8E\	6	16g\LL	4rAyy	.	16ee\LL	.	8E\	sae-	8c\	sae-	8g\	sae-	8ee\	sae-	8g\L	.	16cc\LL	.
.	.	16cc\	.	.	16gg\	.	.	.	.	.	.	.	.	.	.	.	16dd\	.
8E\J	.	16g\	.	.	16ee\	.	16E\	-cu-	16c\	-cu-	16g\	-cu-	16ee\	-cu-	16a\L	.	16cc\	.
.	.	16cc\JJ	.	.	16gg\JJ	.	16E\	-la	16c\	-la	16g\	-la	16ee\	-la,	16g\JJ	.	16b-\JJ	.
!	!	!LO:LB:g=original	!	!	!	!	!	!	!	!	!	!	!	!	!	!	!	!
!	!	!	!	!	!	!	!	!	!	!	!	!	!	!	!LO:TX:a:t=P:problem=mixed beam	!	!	!
8F\L	.	8a\L	2rcyy	.	16aa\LL	.	(8F\L	sae-	8A/	sae-	8a\	sae-	8cc\	sae-	8f\L	.	8a\L	.
.	.	.	.	.	16cc\	.	.	.	.	.	.	.	.	.	.	.	.	.
8G\	6	8ee\	.	.	16gg\	.	8G\J)	.	8B-\	-cu-	8g\	-cu-	8b-\	-cu-	8c/J	.	8g\J	.
.	.	.	.	.	16b-\JJ	.	.	.	.	.	.	.	.	.	.	.	.	.
!	!	!	!	!	!LO:TX:a:t=P:problem=mixed beam	!	!	!	!	!	!	!	!	!	!	!	!	!
8A\	6	8ff\	.	.	16ff\LL	.	(8A\L	-cu-	8A/	-lo-	8f\	-lo-	8cc\	-lo-	8A/L	.	16f\LL	.
.	.	.	.	.	16a/	.	.	.	.	.	.	.	.	.	.	.	16a\	.
8E\J	6	8gg\J	.	.	16g/	.	8E\J)	.	8c\	-rum	8g\	-rum	8cc\	-rum	8f/J	.	16cc\	.
.	.	.	.	.	16cc/JJ	.	.	.	.	.	.	.	.	.	.	.	16b-\JJ	.
*	*	*v	*v	*	*	*	*	*	*	*	*	*	*	*	*	*	*	*
=91	=91	=91	=91	=91	=91	=91	=91	=91	=91	=91	=91	=91	=91	=91	=91	=91	=91
!LO:TX:a:t=P:problem=mixed beam	!	!	!	!LO:TX:a:t=P:problem=mixed beam	!	!	!	!	!	!	!	!	!	!LO:TX:a:t=P:problem=mixed beam	!	!	!
8F\L	.	8cc\L	.	16a/LL	.	8F\	-lo-	8c\	a-	8a\	A-	8cc\	a-	16f\LL	.	16a\LL	.
.	.	.	.	16aa\	.	.	.	.	.	.	.	.	.	16c/	.	16g\	.
8B-\	6	8ff\	.	16gg\	.	8B-\	-rum	8d\	-men	(16g\LL	-men	(16b-\LL	-men,	16A/	.	16f\	.
.	.	.	.	16ff\JJ	.	.	.	.	.	16f\JJ)	.	16a,<\JJ)	.	16c/JJ	.	16g\JJ	.
!	!	!	!	!	!	!	!	!	!	!	!	!	!	!	!	!LO:LB:g=original	!
!	!	!LO:SIC:o:s:=:v:s=8dd	!	!	!	!LO:TX:a:t=P:problem=mixed beam	!	!	!	!	!	!	!	!	!	!	!
8c\	.	8ee\	.	8ff\L	.	(8c\L	A-	4c\	a-	(8f\L	A-	4g/	a-	8f/L	.	8a\L	.
!	!	!LO:SIC:o:s:=:v:s=8ee	!	!	!	!	!	!	!	!	!	!	!	!	!	!	!
8C/J	4	8ff\J	.	8gg\J	.	8C/J)	.	.	.	8e\J)	.	.	.	8c/J	.	16g\L	.
.	3	.	.	.	.	.	.	.	.	.	.	.	.	.	.	16f\JJ	.
!	!	!	!	!	!	!	!	!LO:PB:g=original	!	!	!	!	!	!	!	!	!
!	!	!LO:TX:a:t=P:problem=mixed beam	!	!LO:TX:a:t=P:problem=mixed beam	!	!	!	!	!	!	!	!	!	!	!	!LO:TX:a:t=P:problem=mixed beam	!
4F\	.	16ff\LL	.	16aa\LL	.	4F\	-men	8c\	-men	8f,<\	-men	8f,</	-men,	8A/L	.	8f\L	.
.	.	16f/	.	16f/	.	.	.	.	.	.	.	.	.	.	.	.	.
.	.	16f/	.	16f/	.	.	.	8r	.	16f\LL	A-	(16a\LL	a-	8F/J	.	8F/J	.
.	.	16f/JJ	.	16f/JJ	.	.	.	.	.	16g\JJ	.	16b-\JJ)	.	.	.	.	.
!	!	!	!	!	!	!	!	!	!	!LO:LB:g=original	!	!	!	!LO:LB:g=original	!	!	!
8r	.	16f/LL	.	16f/LL	.	8r	.	8r	.	8a\L	.	(8cc\L	.	4f\	.	4f\	.
.	.	16f/	.	16f/	.	.	.	.	.	.	.	.	.	.	.	.	.
8BB-/	.	16f/	.	16f/	.	8BB-/	A-	8B-\	A-	8b-\J	.	8dd\J)	.	.	.	.	.
.	.	16f/JJ	.	16f/JJ	.	.	.	.	.	.	.	.	.	.	.	.	.
=92	=92	=92	=92	=92	=92	=92	=92	=92	=92	=92	=92	=92	=92	=92	=92	=92	=92
4F\	.	16f/LL	.	16f/LL	.	4F\	-men	8c\	-men	8a,<\	-men	8cc,<\	-men,	8r	.	8r	.
.	.	16f/	.	16f/	.	.	.	.	.	.	.	.	.	.	.	.	.
.	.	16f/	.	16f/	.	.	.	8r	.	16f\LL	A-	(16a\LL	a-	8F/	.	8F/	.
.	.	16f/JJ	.	16f/JJ	.	.	.	.	.	16g\JJ	.	16b-\JJ	.	.	.	.	.
8r	.	16f/LL	.	16f/LL	.	8r	.	8r	.	8a\L	.	8cc\L	.	4f\	.	4f\	.
.	.	16f/	.	16f/	.	.	.	.	.	.	.	.	.	.	.	.	.
*	*	*	*	*	*	*	*	*	*ij	*	*	*	*	*	*	*	*
8BB-/	.	16f/	.	16f/	.	8B-\	A-	8B-\	A-	8b-\J	.	8dd\J)	.	.	.	.	.
.	.	16f/JJ	.	16f/JJ	.	.	.	.	.	.	.	.	.	.	.	.	.
!	!	!LO:TX:a:t=P:problem=mixed beam	!	!LO:TX:a:t=P:problem=mixed beam	!	!	!	!	!	!	!	!	!	!	!	!	!
4F\	.	16f/LL	.	16f/LL	.	4F\	-men	4c\	-men	8a\L	.	8cc\	.	8r	.	8r	.
.	.	16ff\	.	16ff\	.	.	.	.	.	.	.	.	.	.	.	.	.
!	!	!	!	!	!	!	!	!	!	!	!	!	!	!	!	!LO:N:vis=4	!
.	.	16ff\	.	16ff\	.	.	.	.	.	16g\L	.	(16b-\LL	-men	8F/	.	8F/	.
.	.	16ff\JJ	.	16ff\JJ	.	.	.	.	.	16f\JJ	.	16a\JJ)	.	.	.	.	.
!	!	!	!	!LO:LB:g=original	!	!	!	!	!	!	!	!	!	!	!	!	!
8r	.	16ff\LL	.	16gg\LL	.	8r	.	8r	.	(8f\L	.	4g/	a-	4c/	.	4c/	.
.	.	16ff\	.	16gg\	.	.	.	.	.	.	.	.	.	.	.	.	.
*	*	*	*	*	*	*	*ij	*	*Xij	*	*	*	*	*	*	*	*
8C/	.	16ee\	.	16gg\	.	8C/	A-	8c\	A-	8e\J)	.	.	.	.	.	.	.
.	.	16ee\JJ	.	16gg\JJ	.	.	.	.	.	.	.	.	.	.	.	.	.
!	!	!	!	!	!	!LO:LB:g=original	!	!	!	!	!	!	!	!	!	!	!
=93	=93	=93	=93	=93	=93	=93	=93	=93	=93	=93	=93	=93	=93	=93	=93	=93	=93
8F\L	.	16ff\LL	.	16aa\LL	.	8F,<\	-men	8c,<\	-men	8f,<\	-men	8f,</	-men,	8r	.	8r	.
.	.	16cc\	.	16ff\	.	.	.	.	.	.	.	.	.	.	.	.	.
*	*	*	*	*	*	*	*Xij	*	*Xij	*	*	*	*	*	*	*	*
16F\L	.	16ff\	.	16aa\	.	(16F\LL	A-	(16A\LL	A-	4f\	A-	(16cc\LL	a-	16a\LL	.	16cc\LL	.
16G\JJ	.	16ff\JJ	.	16gg\JJ	.	16G\JJ)	.	16B-\JJ	.	.	.	16b-\JJ	.	16g\JJ	.	16b-\JJ	.
8A\L	6	16ff\LL	.	16ff\LL	.	8A\L	.	8c\)	.	.	.	8a\)	.	8f\L	.	8a\L	.
.	.	16ff\	.	16ff\	.	.	.	.	.	.	.	.	.	.	.	.	.
!	!	!	!	!	!	!	!	!	!	!	!	!LO:PB:g=original	!	!	!	!	!
!	!	!	!	!	!	!	!	!	!	!	!	!LO:SIC:o:s:=:v:zapis nieczytelny [prawdopodobnie 16dd]	!	!	!	!	!
8B-\J	.	16ff\	.	16ff\	.	8B-\J	.	8B-\	-men	8f\	-men	8r	.	8b-\J	.	8dd\J	.
.	.	16ff\JJ	.	16ff\JJ	.	.	.	.	.	.	.	.	.	.	.	.	.
*	*	*	*	*	*	*	*	*	*	*	*ij	*	*	*	*	*	*
8A\L	.	16ff\LL	.	16ff\LL	.	8A\	.	8c\	a-	8f\	A-	8cc\	.	8f\L	.	8cc\L	.
.	.	16ff\	.	16aa\	.	.	.	.	.	.	.	.	.	.	.	.	.
16G\L	.	16ff\	.	16aa\	.	(16G\LL	-men	8c\	-men	8a\	-men	8ff,<\	-men,	16f\L	.	16b-\L	.
16F\JJ	.	16ff\JJ	.	16aa\JJ	.	16F\JJ)	.	.	.	.	.	.	.	16f\JJ	.	16a\JJ	.
!LO:TX:a:t=P:problem=mixed beam	!	!	!	!	!	!	!	!	!	!	!	!	!	!	!	!	!
*	*	*	*	*	*	*	*	*	*ij	*	*	*	*	*	*	*	*
8c\L	.	16ff\LL	.	16gg\LL	.	(8c\L	A-	4c\	a-	4g\	A-	(8ff\L	a-	8f\L	.	4gT\	.
.	.	16ff\	.	16gg\	.	.	.	.	.	.	.	.	.	.	.	.	.
8C/J	.	16ee\	.	16gg\	.	8C/J)	.	.	.	.	.	8ee\J)	.	8c\J	.	.	.
.	.	16ee\JJ	.	16gg\JJ	.	.	.	.	.	.	.	.	.	.	.	.	.
!	!	!LO:PB:g=original	!	!	!	!	!	!	!	!	!	!	!	!	!	!	!
=94	=94	=94	=94	=94	=94	=94	=94	=94	=94	=94	=94	=94	=94	=94	=94	=94	=94
!LO:TX:a:t=P:problem=mixed beam	!	!	!	!	!	!	!	!	!	!	!	!	!	!	!	!	!
8F\L	.	16ff\LL	.	16aa\LL	.	4F\	-men	4c\	-men	4a\	-men	4ff,<\	-men	16A/LL	.	16f\LL	.
.	.	16a/	.	16ff\	.	.	.	.	.	.	.	.	.	16f/	.	16a\	.
8FF/J	.	16a/	.	16ff\	.	.	.	.	.	.	.	.	.	16c/	.	16g\	.
.	.	16a/JJ	.	16ff\JJ	.	.	.	.	.	.	.	.	.	16A/JJ	.	16f\JJ	.
*	*	*	*	*	*	*	*	*	*ij	*	*	*	*ij	*	*	*	*
8C/L	.	16g/LL	.	16ff\LL	.	4C/	A-	4c\	a-	4g\	A-	4ee\	a-	8c/L	.	16g\LL	.
.	.	16g/	.	16ff\	.	.	.	.	.	.	.	.	.	.	.	16b-\	.
8CC/J	.	16g/	.	16ee\	.	.	.	.	.	.	.	.	.	16f/L	.	16a\	.
.	.	16g/JJ	.	16ee\JJ	.	.	.	.	.	.	.	.	.	16c/JJ	.	16g\JJ	.
*	*	*	*	*	*	*2\right	*	*	*	*	*	*	*	*	*	*2\right	*
2FF/	.	2a/	.	2ff\	.	2F\	-men	2A/	-men	2f\	-men	2ff\	-men	2A/	.	2f\	.
*	*	*	*	*	*	*	*	*	*Xij	*	*Xij	*	*Xij	*	*	*	*
=95	=95	=95	=95	=95	=95	=95	=95	=95	=95	=95	=95	=95	=95	=95	=95	=95	=95
1BB-/	.	4.dd\	.	4.ff\	.	1BB-/	A-	1B-\	A-	1f\	A-	1dd\	-a-	8F/L	.	8F/L	.
.	.	.	.	.	.	.	.	.	.	.	.	.	.	8F/	.	8F/	.
.	.	.	.	.	.	.	.	.	.	.	.	.	.	8F/	.	8F/	.
.	.	8dd\	.	8bb-\	.	.	.	.	.	.	.	.	.	8F/J	.	8F/J	.
.	.	4.dd\	.	4.ff\	.	.	.	.	.	.	.	.	.	8F/L	.	8F/L	.
.	.	.	.	.	.	.	.	.	.	.	.	.	.	16F/L	.	16F/L	.
.	.	.	.	.	.	.	.	.	.	.	.	.	.	16F/JJ	.	16F/JJ	.
.	.	.	.	.	.	.	.	.	.	.	.	.	.	16F/LL	.	16F/LL	.
.	.	.	.	.	.	.	.	.	.	.	.	.	.	16F/	.	16F/	.
.	.	8ee\	.	8gg\	.	.	.	.	.	.	.	.	.	16F/	.	16F/	.
.	.	.	.	.	.	.	.	.	.	.	.	.	.	16F/JJ	.	16F/JJ	.
=96	=96	=96	=96	=96	=96	=96	=96	=96	=96	=96	=96	=96	=96	=96	=96	=96	=96
!LO:SIC:o:s:=:v:brak kreski taktowej (szlaczek)	!	!	!	!	!	!	!	!LO:SIC:o:s:=:v:kreska taktowa pojedyncza + szlaczek	!	!LO:SIC:o:s:=:v:kreska taktowa pojedyncza + szlaczek	!	!LO:SIC:o:s:=:v:brak kreski taktowej (szlaczek)	!	!	!	!	!
!	!	!LO:SIC:o:s:=:v:kreska taktowa pojedyncza + szlaczek	!	!	!	!LO:SIC:o:s:=:v:fermata obrócona	!	!LO:SIC:o:s:=:v:łuk nad i pod nutą [fermata]	!	!LO:SIC:o:s:=:v:łuk nad i pod nutą [fermata]	!	!	!	!	!	!	!
!	!	!	!	!	!	!	!	!	!	!	!	!LO:SIC:o:s:=:v:fermata nad i pod nutą	!	!	!	!	!
0FF/;	.	0ff\;	.	0aa\;	.	0FF/;	-men	0A\;;	-men	0f\;;	-men	0cc\;	-men	0F/;	.	0F/;	.
==	==	==	==	==	==	==	==	=	=	=	=	==	==	==:||:	==	==:||:	==
*-	*-	*-	*-	*-	*-	*-	*-	*-	*-	*-	*-	*-	*-	*-	*-	*-	*-
!!!system-decoration: [(s1,s2)][(s3,s4,s5,s6)][(s7,s8)]s9
!!!RDF**kern: > = above
!!!RDF**kern: < = below
!!!RDF**dynam: p = piano
!!!RDF**dynam: f = forte
!!!EED: Leszek Kubiak
!!!EEV: 2020-11-25
!!!ENC: Andrzej Kubiczek
!!!END: 2020-05-14
!!!YEC: Copyright 2022 Narodowy Instytut Fryderyka Chopina (https://polishscores.org)
!!!YEM: Licence CC BY 4.0 (https://creativecommons.org/licenses/by/4.0)
